AI/models/basis_lut_0.cube
TITLE "Basis LUT 0 (identity)"
LUT_3D_SIZE 33
-0.234557 -0.161611 -0.233863
-0.211311 -0.160204 -0.217362
-0.160739 -0.159065 -0.208475
-0.101758 -0.157673 -0.207670
-0.038534 -0.156260 -0.188607
0.000052 -0.133239 -0.170524
0.015251 -0.122121 -0.162098
0.015951 -0.113936 -0.142332
0.016562 -0.106111 -0.108239
0.017553 -0.100468 -0.063223
0.018057 -0.074233 -0.010952
0.018146 -0.059592 0.041250
0.019609 -0.048664 0.092082
0.020153 -0.041669 0.143744
0.020630 -0.034553 0.198393
0.021303 -0.030566 0.251871
0.022013 -0.029624 0.302163
0.022701 -0.025432 0.350341
0.023279 -0.022218 0.397736
0.024027 -0.021895 0.443841
0.024739 -0.018926 0.486830
0.025625 -0.018673 0.529148
0.026582 -0.018269 0.570923
0.027704 -0.014175 0.611466
0.028252 -0.012506 0.650336
0.029213 -0.010814 0.684964
0.030210 -0.008687 0.722901
0.030991 -0.007104 0.757698
0.032412 -0.005367 0.790795
0.034177 -0.004345 0.827755
0.034345 -0.003595 0.860232
0.039306 -0.002090 0.891428
0.045907 0.003550 0.912198
-0.198974 -0.130537 -0.200931
-0.190771 -0.129627 -0.198351
-0.157920 -0.129607 -0.196884
-0.100894 -0.126319 -0.194905
-0.037508 -0.117549 -0.188115
0.027529 -0.116872 -0.169473
0.034292 -0.109891 -0.160085
0.035158 -0.103592 -0.141059
0.035455 -0.098576 -0.106704
0.035649 -0.095215 -0.059785
0.035987 -0.071837 -0.009776
0.036267 -0.054852 0.042208
0.036730 -0.040701 0.092434
0.037151 -0.030527 0.145500
0.037708 -0.020634 0.199784
0.038301 -0.014016 0.252218
0.038909 -0.005431 0.303816
0.039609 -0.004449 0.352237
0.040200 0.000077 0.399698
0.040439 0.003723 0.447558
0.041122 0.007594 0.490914
0.041926 0.009087 0.531681
0.042372 0.013440 0.572656
0.042793 0.013957 0.612788
0.043683 0.015541 0.650633
0.043841 0.015948 0.687230
0.044591 0.019553 0.723050
0.044670 0.020733 0.760209
0.045842 0.022785 0.796013
0.046415 0.024144 0.827968
0.049496 0.025462 0.863505
0.050563 0.027192 0.896281
0.051703 0.028559 0.916458
-0.197348 -0.117105 -0.198847
-0.190707 -0.081746 -0.173490
-0.157602 -0.080399 -0.170258
-0.100547 -0.080050 -0.168490
-0.037373 -0.078277 -0.167538
0.028186 -0.075758 -0.166908
0.043176 -0.073455 -0.158665
0.044318 -0.070429 -0.138535
0.044789 -0.065996 -0.104938
0.045147 -0.062531 -0.058974
0.045455 -0.060368 -0.009549
0.045759 -0.051775 0.042368
0.046173 -0.039981 0.093190
0.046297 -0.027149 0.146674
0.046615 -0.016112 0.200323
0.046995 -0.008878 0.252740
0.047177 -0.002563 0.304826
0.047594 0.006128 0.353162
0.047923 0.013249 0.401258
0.048455 0.018387 0.448149
0.048881 0.024766 0.491184
0.049407 0.031736 0.534436
0.049904 0.033525 0.573123
0.050581 0.039131 0.613061
0.051276 0.042901 0.652288
0.051909 0.043504 0.689716
0.052475 0.047689 0.724851
0.053217 0.049878 0.761939
0.053430 0.051761 0.797681
0.053879 0.052848 0.831265
0.054755 0.057105 0.865225
0.056309 0.059133 0.898243
0.056420 0.060105 0.916557
-0.188638 -0.047180 -0.187254
-0.180447 -0.026146 -0.161176
-0.157485 -0.025227 -0.157651
-0.099528 -0.024537 -0.150844
-0.035985 -0.024311 -0.146295
0.028709 -0.023662 -0.143819
0.043610 -0.023120 -0.139448
0.044704 -0.023053 -0.134778
0.045811 -0.022663 -0.103145
0.046509 -0.021831 -0.058151
0.047205 -0.021494 -0.009102
0.047329 -0.020235 0.042393
0.047376 -0.019197 0.094277
0.047482 -0.015931 0.147327
0.047950 -0.009860 0.200570
0.048167 0.003149 0.253481
0.048407 0.012486 0.305743
0.048720 0.023039 0.354385
0.049027 0.030275 0.401595
0.049329 0.036340 0.448189
0.049946 0.040711 0.493305
0.050642 0.046686 0.534643
0.051268 0.053123 0.575759
0.051437 0.057158 0.615111
0.051973 0.061167 0.653191
0.052665 0.068087 0.690390
0.053223 0.072346 0.726928
0.053589 0.075810 0.762024
0.053853 0.076155 0.798752
0.056414 0.080814 0.834536
0.056453 0.082219 0.867633
0.057260 0.083476 0.900241
0.060100 0.087187 0.917484
-0.174486 -0.000837 -0.164846
-0.157832 0.018094 -0.148193
-0.155976 0.024990 -0.147020
-0.099251 0.030843 -0.144638
-0.035620 0.031004 -0.135375
0.028791 0.031015 -0.130687
0.043889 0.031815 -0.126555
0.045086 0.032144 -0.121218
0.047351 0.032583 -0.098554
0.047862 0.032752 -0.057444
0.048077 0.033266 -0.007569
0.048247 0.033526 0.043845
0.048877 0.034776 0.095301
0.048977 0.036211 0.147408
0.049368 0.036314 0.200858
0.049567 0.043422 0.254067
0.049785 0.049588 0.305743
0.049988 0.054547 0.355324
0.050368 0.061537 0.403129
0.050795 0.064358 0.449497
0.051350 0.069625 0.493532
0.052029 0.074969 0.535239
0.052641 0.079127 0.576725
0.053200 0.084972 0.616999
0.053720 0.085308 0.654902
0.053888 0.090070 0.693382
0.054480 0.094300 0.728470
0.055444 0.101502 0.764011
0.055937 0.105355 0.799048
0.056681 0.107030 0.835896
0.058950 0.108040 0.868667
0.059748 0.112103 0.900559
0.061719 0.112936 0.917705
-0.148038 0.075228 -0.140961
-0.139489 0.077437 -0.129786
-0.139045 0.078281 -0.126761
-0.097870 0.081198 -0.125186
-0.035018 0.084038 -0.124369
0.029837 0.086492 -0.119536
0.044257 0.086860 -0.114677
0.046119 0.087731 -0.109993
0.047779 0.087940 -0.092633
0.048400 0.088205 -0.056180
0.048915 0.088865 -0.006994
0.049497 0.089935 0.044195
0.049793 0.090518 0.095425
0.050093 0.090553 0.147966
0.050290 0.093615 0.201457
0.050767 0.096691 0.254198
0.051026 0.098199 0.306111
0.051474 0.100475 0.355676
0.051740 0.103768 0.403168
0.052147 0.107788 0.450316
0.053086 0.109418 0.494063
0.053277 0.112713 0.535758
0.054575 0.113557 0.576767
0.054616 0.115268 0.618029
0.056260 0.119521 0.656476
0.057189 0.122143 0.694425
0.057412 0.125826 0.729269
0.058466 0.129247 0.765117
0.059142 0.130581 0.800585
0.060006 0.131174 0.836300
0.060779 0.135686 0.869517
0.061599 0.140398 0.903573
0.062504 0.141746 0.918516
-0.120762 0.121024 -0.105445
-0.113665 0.121794 -0.102985
-0.109186 0.125326 -0.102622
-0.096792 0.125544 -0.101158
-0.034446 0.127351 -0.099823
0.030346 0.127875 -0.099019
0.044367 0.131852 -0.096373
0.046573 0.135788 -0.094839
0.048664 0.136790 -0.088423
0.049623 0.137087 -0.052449
0.051055 0.138430 -0.006950
0.051820 0.139043 0.044470
0.051759 0.140480 0.095809
0.051983 0.140924 0.148135
0.052188 0.142059 0.202371
0.052746 0.147005 0.254772
0.052907 0.150060 0.306464
0.053164 0.151504 0.355816
0.054275 0.153264 0.403536
0.054695 0.154327 0.450766
0.055245 0.155144 0.494204
0.055842 0.155148 0.536555
0.056143 0.157986 0.578006
0.056880 0.159094 0.618473
0.057585 0.159859 0.657396
0.058562 0.159992 0.694648
0.059481 0.163597 0.729645
0.060232 0.164400 0.765136
0.060599 0.165037 0.802437
0.061835 0.166758 0.836953
0.062998 0.170279 0.870482
0.063737 0.171905 0.904986
0.066104 0.172371 0.918874
-0.088030 0.157772 -0.078636
-0.073211 0.159526 -0.076149
-0.072175 0.161684 -0.073169
-0.069462 0.164866 -0.071661
-0.032266 0.166167 -0.070705
0.031289 0.167325 -0.070271
0.044802 0.167974 -0.069979
0.046808 0.174630 -0.068032
0.048877 0.182238 -0.066133
0.050562 0.183216 -0.051798
0.052163 0.184327 -0.006224
0.053204 0.185803 0.045119
0.054293 0.186627 0.096033
0.054910 0.188191 0.148658
0.055436 0.189956 0.202627
0.055481 0.192509 0.255243
0.055636 0.193132 0.307006
0.055756 0.194837 0.356812
0.055978 0.197189 0.404063
0.056974 0.197818 0.450876
0.057038 0.198266 0.495113
0.058171 0.199215 0.537272
0.058290 0.200478 0.578597
0.058588 0.200917 0.618595
0.059151 0.201278 0.657480
0.060239 0.203158 0.695424
0.061225 0.204448 0.730493
0.061626 0.205210 0.765885
0.062252 0.205245 0.802766
0.062504 0.206172 0.837665
0.065797 0.207337 0.872666
0.066908 0.207623 0.905899
0.068604 0.211592 0.919109
-0.056405 0.196734 -0.047522
-0.038560 0.200454 -0.043482
-0.036449 0.202350 -0.042968
-0.031713 0.204432 -0.041818
-0.028002 0.204999 -0.039632
0.032343 0.207783 -0.038869
0.045341 0.208538 -0.037964
0.046983 0.209286 -0.037876
0.048957 0.210489 -0.035573
0.050582 0.221398 -0.033500
0.052416 0.225873 -0.005119
0.054975 0.225935 0.045459
0.056933 0.226481 0.096225
0.058283 0.230915 0.148703
0.058943 0.232316 0.202869
0.059220 0.234353 0.255662
0.059306 0.235019 0.307341
0.060162 0.237041 0.356876
0.060183 0.238264 0.404512
0.060229 0.238749 0.451557
0.060820 0.239500 0.495472
0.061912 0.241007 0.538462
0.062551 0.241966 0.578616
0.062930 0.242903 0.619197
0.063433 0.243474 0.658798
0.064455 0.243958 0.695443
0.064678 0.244705 0.731630
0.065001 0.245549 0.766889
0.066515 0.246236 0.804022
0.067231 0.246883 0.838458
0.068921 0.248220 0.873536
0.071264 0.249884 0.906856
0.072027 0.251475 0.920700
-0.032523 0.231795 -0.036966
-0.026264 0.232940 -0.015661
-0.010538 0.236935 -0.012212
-0.008544 0.239058 -0.011809
-0.008124 0.241192 -0.011295
0.033439 0.243440 -0.010561
0.045367 0.244568 -0.009100
0.047052 0.245804 -0.007032
0.049201 0.247620 -0.006928
0.050617 0.249556 -0.005362
0.052749 0.254563 -0.002556
0.055300 0.259455 0.045875
0.057954 0.260511 0.096678
0.060130 0.260988 0.149286
0.060834 0.263772 0.203335
0.061993 0.267852 0.255920
0.063082 0.269364 0.307497
0.063968 0.270936 0.356969
0.064124 0.272781 0.405103
0.064908 0.274387 0.451837
0.065053 0.276332 0.495738
0.065099 0.276595 0.538965
0.065475 0.277193 0.580131
0.066561 0.277999 0.619614
0.067158 0.278925 0.659205
0.067539 0.279908 0.696446
0.069469 0.280191 0.732018
0.069516 0.280934 0.767981
0.070357 0.281659 0.804794
0.071760 0.283088 0.839502
0.072953 0.284301 0.873933
0.075065 0.285655 0.907607
0.085363 0.287670 0.921292
-0.023671 0.261002 -0.030434
-0.013059 0.263283 0.001282
-0.003519 0.268142 0.016741
0.000999 0.270232 0.017424
0.009071 0.273375 0.019055
0.033751 0.274537 0.020559
0.045984 0.277600 0.021345
0.047339 0.281191 0.022285
0.049377 0.282045 0.023444
0.051196 0.284019 0.023778
0.053219 0.284625 0.033649
0.055682 0.286624 0.049738
0.058284 0.289988 0.097043
0.061144 0.292708 0.149858
0.061911 0.293083 0.203402
0.062493 0.295547 0.256122
0.064393 0.298250 0.308220
0.065171 0.302476 0.357137
0.065943 0.304404 0.405310
0.067449 0.304873 0.451898
0.067795 0.305648 0.496166
0.067902 0.306489 0.538974
0.068257 0.307071 0.580555
0.068278 0.307822 0.620192
0.069402 0.310882 0.659399
0.070246 0.311757 0.696607
0.071073 0.311903 0.732484
0.071526 0.312781 0.768191
0.073981 0.314325 0.805180
0.076106 0.314422 0.840526
0.076767 0.316628 0.874751
0.079463 0.319393 0.908245
0.099531 0.320376 0.921856
-0.020123 0.288446 -0.028064
-0.007359 0.292313 0.005094
0.000986 0.296887 0.023644
0.002105 0.299064 0.046296
0.014392 0.301677 0.048901
0.034163 0.304905 0.049122
0.046039 0.305093 0.050616
0.047799 0.306165 0.051788
0.049701 0.308556 0.052736
0.051248 0.309174 0.053788
0.053418 0.312470 0.054990
0.055784 0.314183 0.082580
0.059034 0.314491 0.098036
0.061404 0.316674 0.150500
0.063116 0.318277 0.204205
0.063365 0.319956 0.256957
0.064689 0.319996 0.308422
0.065548 0.322867 0.357690
0.066928 0.327850 0.405486
0.068216 0.328368 0.452350
0.068906 0.332074 0.496341
0.071168 0.332527 0.539557
0.071811 0.335483 0.580659
0.072513 0.335698 0.620546
0.072752 0.336917 0.659550
0.074153 0.338331 0.696865
0.074536 0.339673 0.732718
0.075542 0.340970 0.768841
0.075646 0.342220 0.805275
0.078841 0.343549 0.841080
0.080958 0.345031 0.874785
0.083590 0.346555 0.908731
0.107848 0.348761 0.922495
-0.013930 0.322944 -0.022287
-0.003599 0.323910 0.009838
0.001858 0.327235 0.039856
0.006255 0.327705 0.064425
0.018553 0.329083 0.069239
0.034364 0.333130 0.080127
0.046339 0.334845 0.080239
0.047948 0.335380 0.081970
0.050089 0.337396 0.084059
0.051690 0.339438 0.085494
0.053504 0.341626 0.087705
0.056107 0.342207 0.095561
0.059081 0.343415 0.130961
0.061470 0.343992 0.151836
0.063532 0.345803 0.204333
0.064055 0.347649 0.257059
0.064950 0.347878 0.309092
0.066180 0.349260 0.357832
0.067015 0.350438 0.406115
0.068557 0.354486 0.452640
0.069143 0.356034 0.496413
0.074090 0.359043 0.539760
0.076906 0.360642 0.581299
0.080143 0.363440 0.620989
0.081675 0.364078 0.659974
0.083385 0.365170 0.696908
0.084565 0.366572 0.733417
0.085740 0.368616 0.769371
0.086390 0.369678 0.805782
0.089154 0.371003 0.841601
0.095348 0.372501 0.876735
0.101625 0.375036 0.909471
0.114314 0.379744 0.923080
-0.009786 0.354434 -0.014714
-0.002737 0.356147 0.018691
0.003495 0.360200 0.042972
0.006945 0.360584 0.073746
0.019200 0.363078 0.083985
0.034863 0.364381 0.095493
0.046612 0.366177 0.108954
0.048160 0.367284 0.111531
0.050162 0.369485 0.114828
0.051724 0.370649 0.115630
0.053604 0.372463 0.117291
0.056325 0.373669 0.118590
0.059363 0.374222 0.135997
0.061826 0.375335 0.181359
0.063640 0.375570 0.207230
0.064422 0.378202 0.257617
0.065089 0.379875 0.309413
0.067055 0.380256 0.358491
0.067617 0.381554 0.406461
0.069158 0.381871 0.453007
0.070833 0.383825 0.497311
0.074159 0.386714 0.539856
0.078352 0.388217 0.581386
0.083864 0.389547 0.621171
0.088490 0.392498 0.660328
0.091078 0.393163 0.697544
0.094208 0.394779 0.734009
0.096173 0.397201 0.769542
0.099822 0.398409 0.806291
0.100837 0.400169 0.841739
0.103202 0.401572 0.877343
0.109615 0.406461 0.910156
0.122371 0.407668 0.923546
-0.006304 0.387291 -0.011894
0.001386 0.390490 0.021914
0.004306 0.392393 0.049377
0.007190 0.393448 0.076554
0.019230 0.396032 0.104064
0.035434 0.397266 0.107999
0.046906 0.399201 0.122941
0.048436 0.400497 0.126858
0.050824 0.400649 0.131968
0.052307 0.402539 0.134863
0.054094 0.404492 0.135990
0.056569 0.406574 0.140696
0.059702 0.406719 0.148968
0.062056 0.407180 0.185238
0.063811 0.408750 0.229353
0.065021 0.409497 0.258501
0.065553 0.410476 0.309450
0.067307 0.411981 0.359571
0.068948 0.412751 0.407005
0.070091 0.413871 0.453470
0.071629 0.413982 0.497603
0.074593 0.416198 0.540161
0.078865 0.417752 0.581408
0.084269 0.422347 0.621328
0.089285 0.422347 0.660874
0.096161 0.423665 0.698666
0.103019 0.424565 0.734309
0.107605 0.426168 0.770045
0.109058 0.429629 0.806529
0.109064 0.430057 0.842292
0.113615 0.432321 0.877723
0.119035 0.433056 0.910648
0.132081 0.435364 0.923839
-0.002654 0.417602 -0.006824
0.002170 0.421251 0.024356
0.004693 0.422870 0.052011
0.007360 0.423858 0.080904
0.019339 0.426353 0.107373
0.036199 0.427441 0.122154
0.047300 0.429381 0.152579
0.049094 0.431067 0.160731
0.051147 0.431824 0.164693
0.052567 0.432470 0.170098
0.054320 0.433978 0.172633
0.056633 0.436589 0.174259
0.059821 0.437298 0.180101
0.062213 0.437964 0.197760
0.063840 0.438851 0.244561
0.065275 0.439345 0.279824
0.065614 0.441638 0.311003
0.067527 0.442405 0.359797
0.069154 0.444665 0.407559
0.071147 0.445456 0.453472
0.071623 0.445741 0.497576
0.075105 0.447005 0.540488
0.079846 0.447947 0.581702
0.084533 0.450408 0.622295
0.090116 0.453799 0.661256
0.096939 0.453868 0.699197
0.105985 0.454698 0.734368
0.110826 0.455253 0.770665
0.114994 0.456619 0.806809
0.117078 0.460614 0.842409
0.121861 0.460649 0.877794
0.134163 0.462723 0.910762
0.155536 0.465805 0.924223
-0.001717 0.449897 -0.005400
0.002751 0.453294 0.024735
0.004916 0.455789 0.052833
0.007402 0.456807 0.082970
0.019414 0.458134 0.110961
0.036962 0.459364 0.131512
0.047666 0.461085 0.158686
0.049653 0.463520 0.183021
0.051497 0.464647 0.196524
0.053252 0.465061 0.197491
0.054558 0.465373 0.201339
0.056757 0.466634 0.201983
0.060198 0.468628 0.202588
0.062606 0.470157 0.205416
0.064164 0.470671 0.248357
0.065365 0.471434 0.287724
0.065986 0.472768 0.330074
0.068308 0.473248 0.360834
0.069248 0.475415 0.407723
0.071264 0.477049 0.453971
0.073066 0.477322 0.497833
0.075633 0.477749 0.540748
0.080550 0.479329 0.582396
0.085611 0.480448 0.622358
0.090942 0.481789 0.661558
0.096983 0.483436 0.699309
0.107538 0.485499 0.735294
0.113909 0.485790 0.770888
0.121140 0.486501 0.806953
0.123263 0.489071 0.842898
0.127787 0.490370 0.877796
0.143624 0.491916 0.911363
0.164629 0.493226 0.924409
-0.000906 0.480296 -0.003383
0.003211 0.483981 0.028643
0.005516 0.486152 0.055595
0.007734 0.487423 0.084600
0.019629 0.487715 0.112654
0.037334 0.489696 0.136866
0.047840 0.492014 0.166141
0.049807 0.493644 0.186755
0.051684 0.494680 0.210168
0.053738 0.495347 0.224869
0.054713 0.496473 0.228595
0.057535 0.497400 0.229312
0.060273 0.497566 0.232409
0.062925 0.499379 0.236973
0.064364 0.501759 0.248462
0.065486 0.503073 0.296366
0.066665 0.503290 0.336523
0.068381 0.504096 0.375785
0.069953 0.505340 0.408980
0.071701 0.506196 0.454018
0.073416 0.508345 0.498911
0.076483 0.509084 0.541070
0.081266 0.509737 0.583286
0.085685 0.509816 0.622390
0.091361 0.510030 0.661702
0.098201 0.512620 0.699426
0.108096 0.514379 0.735789
0.116687 0.514849 0.770844
0.121509 0.515599 0.807087
0.125182 0.517064 0.843198
0.132711 0.518971 0.878034
0.164101 0.521833 0.912100
0.179167 0.524071 0.924514
-0.000169 0.512550 0.000721
0.003538 0.514323 0.029270
0.005766 0.515187 0.058660
0.008045 0.519180 0.086911
0.019712 0.519717 0.116182
0.037850 0.521013 0.142067
0.048301 0.521900 0.169791
0.050195 0.524846 0.192965
0.052115 0.525806 0.223616
0.054063 0.527097 0.228038
0.055351 0.528046 0.247491
0.057783 0.528600 0.255578
0.060724 0.529330 0.259074
0.063445 0.530657 0.263432
0.064663 0.532297 0.269222
0.065755 0.533543 0.297300
0.067072 0.534221 0.341939
0.068403 0.535092 0.381662
0.070421 0.536887 0.423538
0.071899 0.538173 0.455528
0.073832 0.539764 0.499631
0.077166 0.539904 0.542888
0.081473 0.540805 0.583443
0.086510 0.541790 0.622587
0.092885 0.541899 0.661973
0.099828 0.544368 0.699863
0.110505 0.544681 0.735836
0.117532 0.546226 0.771173
0.123096 0.546467 0.807226
0.130036 0.546527 0.843808
0.135914 0.548632 0.878421
0.175113 0.551032 0.912548
0.202465 0.552842 0.924800
0.000883 0.542694 0.002158
0.003720 0.544394 0.029660
0.005960 0.548104 0.059359
0.008434 0.548684 0.089698
0.020032 0.549917 0.116544
0.038462 0.551707 0.146774
0.048684 0.553537 0.173563
0.050860 0.553935 0.200446
0.052492 0.557233 0.225395
0.054660 0.558537 0.249062
0.055553 0.559819 0.261217
0.057987 0.560193 0.276659
0.061049 0.561193 0.279339
0.063694 0.562322 0.285562
0.065027 0.563200 0.285690
0.066166 0.563501 0.303134
0.067587 0.564364 0.344198
0.068513 0.565956 0.388665
0.070647 0.567241 0.434954
0.071980 0.569259 0.469589
0.074013 0.569884 0.503079
0.077835 0.570707 0.543436
0.081573 0.572122 0.584556
0.086993 0.572420 0.623972
0.093429 0.573638 0.662807
0.100352 0.574436 0.699932
0.111529 0.576212 0.736559
0.119763 0.577556 0.771504
0.125094 0.578009 0.807463
0.130723 0.578380 0.844166
0.140239 0.578382 0.878804
0.176816 0.581502 0.913028
0.209965 0.582102 0.924976
0.001803 0.570504 0.002741
0.003962 0.574075 0.029941
0.006061 0.579927 0.059806
0.009186 0.580155 0.090334
0.020528 0.581712 0.119839
0.039168 0.583065 0.148972
0.049318 0.585098 0.175904
0.050861 0.586081 0.202560
0.052601 0.587633 0.230692
0.055218 0.588808 0.256694
0.056337 0.589538 0.281930
0.058009 0.590440 0.298065
0.061294 0.590597 0.303878
0.064280 0.593879 0.307289
0.065506 0.593894 0.313195
0.066626 0.593989 0.328595
0.067884 0.595121 0.348758
0.068985 0.596733 0.394565
0.070778 0.598233 0.440727
0.072772 0.599439 0.478818
0.074299 0.599902 0.507159
0.078438 0.601571 0.544381
0.082002 0.601610 0.587519
0.087617 0.603548 0.626058
0.093870 0.605189 0.663857
0.100951 0.605494 0.700236
0.112362 0.605526 0.736774
0.121647 0.606696 0.771574
0.129196 0.607646 0.807806
0.132212 0.609045 0.844347
0.142281 0.610555 0.879639
0.177453 0.612393 0.914163
0.218101 0.613676 0.925258
0.002397 0.604131 0.003115
0.004334 0.609299 0.030286
0.006735 0.610659 0.060404
0.009988 0.612282 0.091001
0.021153 0.613015 0.121043
0.039834 0.613857 0.150093
0.049987 0.614621 0.177307
0.051848 0.618315 0.206368
0.053301 0.619532 0.233184
0.055476 0.619993 0.260932
0.057006 0.620741 0.291362
0.058795 0.621901 0.313775
0.061702 0.622886 0.319993
0.064331 0.622967 0.320133
0.065888 0.623769 0.324617
0.067153 0.624941 0.346168
0.068420 0.625796 0.389097
0.069537 0.626923 0.408801
0.071125 0.629704 0.443613
0.072783 0.629825 0.482063
0.074930 0.630698 0.512626
0.078715 0.631723 0.551624
0.082443 0.633080 0.588513
0.087668 0.634289 0.628373
0.093985 0.634197 0.666923
0.101377 0.636420 0.703105
0.113360 0.637168 0.736861
0.121793 0.639178 0.773021
0.130469 0.639517 0.807989
0.136320 0.639587 0.844740
0.143367 0.641085 0.879560
0.182744 0.642984 0.914294
0.230851 0.644451 0.925365
0.002943 0.635570 0.003677
0.004816 0.635937 0.030721
0.007819 0.638306 0.060799
0.010742 0.641744 0.091734
0.021784 0.644373 0.121958
0.041876 0.645281 0.151584
0.050641 0.647950 0.179332
0.052510 0.648026 0.210381
0.054015 0.649526 0.236750
0.055483 0.650811 0.262139
0.057434 0.651742 0.295549
0.059651 0.652713 0.322563
0.062304 0.654027 0.342200
0.064622 0.654489 0.353082
0.066463 0.655419 0.362739
0.067638 0.655834 0.375427
0.069129 0.658805 0.399396
0.070017 0.659954 0.426671
0.071515 0.660003 0.455453
0.073468 0.661200 0.484219
0.075731 0.661754 0.516303
0.079161 0.662975 0.555390
0.082757 0.663322 0.592450
0.088209 0.663577 0.629074
0.094152 0.664887 0.667426
0.102091 0.667419 0.705668
0.114139 0.667578 0.738634
0.122898 0.668666 0.773649
0.130630 0.669336 0.808534
0.137276 0.670408 0.845298
0.147787 0.671564 0.879701
0.183530 0.674970 0.914581
0.250662 0.676465 0.925630
0.003490 0.666444 0.004299
0.005354 0.670382 0.031201
0.009162 0.671250 0.061401
0.011414 0.673253 0.092204
0.022435 0.674080 0.122929
0.042303 0.676134 0.153068
0.051374 0.676695 0.180078
0.052909 0.677585 0.211111
0.054625 0.680907 0.238667
0.056182 0.681931 0.268025
0.057710 0.682771 0.299248
0.059881 0.683077 0.326130
0.062925 0.684063 0.354874
0.065428 0.684981 0.375395
0.066986 0.686068 0.386729
0.068128 0.687028 0.400595
0.069554 0.687710 0.410457
0.070615 0.688805 0.431403
0.072296 0.691168 0.460977
0.073700 0.691217 0.490696
0.076596 0.691857 0.518108
0.079804 0.693915 0.558424
0.083005 0.694292 0.598600
0.088673 0.694975 0.635417
0.094531 0.695989 0.669666
0.103199 0.696691 0.705878
0.114236 0.697609 0.740527
0.123383 0.698709 0.774226
0.131670 0.700291 0.809491
0.138614 0.700770 0.846044
0.150306 0.702070 0.880818
0.185463 0.703119 0.914593
0.261983 0.704888 0.925690
0.003941 0.697560 0.004532
0.005884 0.698844 0.031412
0.010266 0.703234 0.062177
0.012353 0.705199 0.092457
0.023100 0.706056 0.123249
0.043047 0.706949 0.154261
0.052091 0.708035 0.183400
0.053682 0.709060 0.212796
0.054734 0.710306 0.243619
0.056649 0.711674 0.272762
0.058381 0.713161 0.300852
0.060363 0.714150 0.330254
0.063049 0.715425 0.360008
0.065741 0.716487 0.385716
0.067263 0.717694 0.406029
0.068728 0.718702 0.417188
0.069923 0.719385 0.435106
0.071209 0.720155 0.454238
0.073158 0.721006 0.478504
0.074519 0.721526 0.507255
0.077551 0.722434 0.531048
0.080171 0.723398 0.563896
0.084374 0.723969 0.601814
0.088925 0.726068 0.639947
0.094841 0.726624 0.673096
0.103409 0.728030 0.707468
0.115996 0.728656 0.741162
0.124525 0.729010 0.774720
0.132165 0.730502 0.810456
0.139685 0.730620 0.846437
0.152148 0.731324 0.881124
0.187458 0.733231 0.915247
0.263282 0.736390 0.925746
0.004419 0.726157 0.004867
0.006849 0.728522 0.031674
0.010734 0.732662 0.062388
0.013926 0.735027 0.092810
0.023846 0.735685 0.123641
0.043869 0.736361 0.154802
0.052638 0.737418 0.184266
0.054478 0.741579 0.214004
0.055140 0.742037 0.245086
0.057409 0.742604 0.274256
0.058613 0.744165 0.302259
0.061142 0.745633 0.332978
0.063561 0.746510 0.361449
0.066677 0.747185 0.389995
0.067969 0.747442 0.414547
0.069411 0.747986 0.439663
0.070554 0.748787 0.453901
0.071662 0.749345 0.474029
0.073829 0.750283 0.492199
0.074709 0.751369 0.522922
0.077691 0.752629 0.543099
0.080675 0.754720 0.572470
0.084387 0.755515 0.605973
0.089897 0.756100 0.643889
0.095477 0.756730 0.677062
0.104084 0.757239 0.709358
0.116395 0.758516 0.742513
0.124620 0.758761 0.777030
0.132530 0.760115 0.812150
0.141679 0.761484 0.846784
0.153842 0.761824 0.882354
0.194625 0.764787 0.915555
0.264541 0.766459 0.925801
0.004864 0.760597 0.005522
0.008138 0.765849 0.032012
0.011323 0.765892 0.062649
0.015676 0.766397 0.093374
0.024712 0.767919 0.124340
0.044036 0.768432 0.155173
0.053541 0.771630 0.185002
0.055295 0.772860 0.215976
0.056017 0.774419 0.245628
0.058050 0.774902 0.276036
0.059420 0.775706 0.305043
0.061166 0.776623 0.335281
0.064130 0.778960 0.366194
0.067261 0.780083 0.391513
0.068632 0.781064 0.420962
0.069901 0.782139 0.447518
0.071028 0.783215 0.465583
0.072732 0.784079 0.491243
0.074505 0.785067 0.512569
