AI/models/basis_lut_1.cube
TITLE "Basis LUT 1"
LUT_3D_SIZE 5
DOMAIN_MIN 0.0 0.0 0.0
DOMAIN_MAX 1.0 1.0 1.0
-0.055779 -0.050004 -0.050695
-0.055448 -0.049522 -0.049674
-0.043121 -0.048028 -0.047492
-0.029756 -0.044298 -0.044049
-0.014107 -0.033295 -0.036164
-0.055461 -0.049511 -0.050258
-0.051911 -0.047098 -0.047877
-0.022727 -0.042412 -0.042482
-0.005686 -0.035609 -0.037776
0.010169 -0.019432 -0.024052
-0.052492 -0.040635 -0.048040
-0.043641 -0.024309 -0.043393
0.000874 -0.008455 -0.038624
0.013421 0.001229 -0.033144
0.020272 0.008764 -0.018107
-0.042561 -0.031091 -0.043115
-0.026378 -0.011874 -0.031722
0.006985 -0.000227 -0.023566
0.018815 0.009164 -0.018133
0.027851 0.018414 -0.011296
-0.026084 -0.019383 -0.028005
-0.010619 -0.003771 -0.016112
0.013499 0.009213 -0.008794
0.025140 0.016897 -0.004056
0.046027 0.027741 -0.000571
-0.054704 -0.049683 -0.050302
-0.051813 -0.047591 -0.047838
-0.026496 -0.043265 -0.042962
-0.015059 -0.037618 -0.036668
-0.002578 -0.020899 -0.024242
-0.050847 -0.047030 -0.048153
-0.046424 -0.041795 -0.044944
0.006586 -0.038409 -0.039125
0.019249 -0.029246 -0.032305
0.023942 -0.009650 -0.013886
-0.045908 -0.027825 -0.042445
-0.038055 -0.008322 -0.038815
0.009727 0.007555 -0.035721
0.024559 0.010988 -0.028446
0.029665 0.016510 -0.008367
-0.028316 -0.018576 -0.030413
-0.014708 -0.001439 -0.020103
0.012132 0.013617 -0.015112
0.028345 0.020250 -0.011044
0.034468 0.026490 -0.003022
-0.012988 -0.009071 -0.014699
-0.001201 0.008097 -0.004212
0.018369 0.022068 0.003430
0.033291 0.027525 0.008954
0.051856 0.037891 0.017810
-0.051441 -0.046793 -0.043306
-0.046738 -0.038214 -0.028912
-0.017462 -0.031316 -0.020549
-0.007498 -0.026368 -0.010443
0.004452 -0.011199 -0.000299
-0.046681 -0.036305 -0.020434
-0.044155 -0.029342 -0.006336
0.009005 -0.024454 0.000206
0.022938 -0.019413 0.005470
0.028441 -0.002351 0.011293
-0.040463 -0.018269 -0.013692
-0.035168 0.000194 0.009643
0.011836 0.013382 0.012211
0.029412 0.015573 0.012618
0.034382 0.022933 0.015569
-0.017707 -0.012065 -0.010994
-0.007354 0.006708 0.011044
0.014665 0.022464 0.013083
0.033445 0.027778 0.014472
0.039402 0.033838 0.018445
-0.005688 -0.003863 -0.002988
0.005303 0.014665 0.014463
0.023176 0.027929 0.018136
0.038240 0.034382 0.020340
0.056146 0.041868 0.025938
-0.048063 -0.038146 -0.028379
-0.038523 -0.027335 -0.016474
-0.010872 -0.019340 -0.009038
0.000922 -0.012097 0.000512
0.016698 -0.001508 0.013569
-0.040462 -0.028480 -0.015252
-0.029387 -0.015603 0.000233
0.010610 -0.007053 0.008217
0.025609 -0.000152 0.015331
0.032510 0.010133 0.026420
-0.032261 -0.012353 -0.004613
-0.025519 0.006383 0.019887
0.012703 0.016751 0.028776
0.032723 0.022958 0.031982
0.039350 0.029811 0.036034
-0.011804 -0.004099 0.000847
0.000396 0.013966 0.024354
0.016550 0.028654 0.034705
0.037437 0.036050 0.037402
0.044037 0.040685 0.040080
-0.001976 0.002256 0.004375
0.012105 0.024069 0.030303
0.025698 0.035192 0.037436
0.041456 0.041800 0.040674
0.058639 0.046373 0.043384
-0.044694 -0.025684 -0.010307
-0.019599 -0.016012 -0.002064
0.000749 -0.009096 0.006605
0.015975 -0.003621 0.015658
0.035888 0.006761 0.031475
-0.029331 -0.018114 -0.004077
-0.009319 -0.001505 0.009914
0.014285 0.006061 0.017832
0.031216 0.013264 0.027402
0.043506 0.022237 0.039820
-0.015853 -0.006903 0.004417
-0.002485 0.014197 0.024545
0.017588 0.022856 0.033505
0.036738 0.029536 0.037612
0.051352 0.040036 0.045515
-0.005137 0.002083 0.018946
0.008495 0.023191 0.032014
0.020792 0.034452 0.039738
0.041428 0.042542 0.045622
0.055506 0.047552 0.051167
0.002931 0.020962 0.028113
0.022125 0.032538 0.040048
0.030933 0.040244 0.046153
0.045600 0.047806 0.059559
0.076616 0.074069 0.076280
