AI/models/basis_lut_1.cube
TITLE "Basis LUT 1"
LUT_3D_SIZE 33
DOMAIN_MIN 0.0 0.0 0.0
DOMAIN_MAX 1.0 1.0 1.0
-0.055779 -0.050004 -0.050695
-0.055609 -0.049930 -0.050128
-0.055600 -0.049901 -0.050080
-0.055580 -0.049883 -0.050083
-0.055494 -0.049848 -0.050020
-0.055484 -0.049789 -0.049938
-0.055481 -0.049764 -0.049786
-0.055454 -0.049693 -0.049732
-0.055448 -0.049522 -0.049674
-0.055310 -0.049541 -0.049464
-0.055022 -0.049486 -0.049261
-0.054717 -0.049367 -0.048891
-0.054618 -0.048937 -0.048756
-0.051398 -0.048945 -0.048348
-0.048946 -0.048257 -0.048148
-0.044151 -0.048091 -0.047727
-0.043121 -0.048028 -0.047492
-0.038976 -0.047629 -0.047137
-0.038068 -0.047595 -0.046779
-0.033685 -0.046636 -0.046357
-0.032490 -0.046182 -0.045921
-0.030636 -0.045874 -0.045487
-0.030313 -0.045589 -0.045113
-0.030030 -0.045212 -0.044666
-0.029756 -0.044298 -0.044049
-0.026049 -0.043846 -0.043489
-0.024636 -0.043261 -0.043425
-0.023291 -0.041086 -0.042941
-0.022883 -0.039816 -0.042284
-0.022178 -0.039722 -0.040368
-0.020742 -0.035977 -0.039447
-0.016878 -0.035357 -0.037820
-0.014107 -0.033295 -0.036164
-0.055718 -0.049976 -0.050689
-0.055530 -0.049846 -0.049897
-0.055516 -0.049748 -0.049887
-0.055484 -0.049717 -0.049833
-0.055464 -0.049679 -0.049744
-0.055417 -0.049649 -0.049783
-0.055381 -0.049638 -0.049743
-0.055246 -0.049545 -0.049427
-0.055143 -0.049356 -0.049374
-0.055091 -0.049314 -0.049331
-0.054854 -0.049273 -0.048747
-0.053624 -0.048999 -0.048673
-0.053427 -0.048803 -0.048529
-0.050348 -0.048410 -0.048205
-0.048295 -0.048041 -0.047815
-0.042881 -0.047730 -0.047040
-0.042339 -0.047242 -0.046813
-0.038298 -0.046851 -0.046512
-0.032469 -0.046751 -0.046090
-0.031065 -0.046123 -0.045298
-0.030820 -0.045839 -0.044858
-0.027186 -0.045309 -0.044423
-0.026044 -0.044873 -0.043959
-0.024330 -0.044211 -0.043542
-0.023324 -0.043344 -0.043113
-0.022178 -0.042850 -0.042804
-0.020471 -0.042574 -0.041985
-0.018967 -0.040000 -0.041298
-0.018243 -0.039031 -0.040889
-0.015180 -0.038920 -0.038945
-0.014011 -0.034229 -0.038540
-0.012656 -0.032316 -0.035301
-0.011363 -0.031441 -0.033742
-0.055744 -0.049932 -0.050695
-0.055518 -0.049843 -0.049865
-0.055507 -0.049733 -0.049764
-0.055425 -0.049665 -0.049745
-0.055345 -0.049665 -0.049754
-0.055273 -0.049619 -0.049702
-0.055242 -0.049461 -0.049625
-0.055167 -0.049489 -0.049396
-0.054877 -0.049220 -0.049063
-0.054644 -0.049038 -0.048786
-0.054230 -0.048787 -0.048473
-0.053229 -0.048666 -0.048306
-0.051080 -0.048413 -0.048268
-0.049043 -0.048053 -0.047348
-0.047515 -0.047952 -0.046882
-0.041284 -0.047520 -0.046554
-0.037351 -0.047199 -0.046088
-0.033712 -0.046620 -0.045898
-0.030320 -0.046032 -0.045405
-0.030267 -0.045900 -0.044993
-0.026703 -0.044746 -0.044561
-0.022647 -0.044304 -0.044249
-0.021598 -0.043639 -0.043834
-0.020592 -0.043542 -0.043142
-0.016960 -0.043019 -0.042755
-0.015906 -0.042074 -0.041310
-0.014993 -0.039933 -0.040358
-0.013744 -0.039079 -0.039530
-0.012743 -0.037257 -0.038973
-0.011599 -0.035587 -0.038473
-0.010530 -0.033840 -0.036817
-0.009083 -0.030855 -0.033630
-0.008230 -0.027344 -0.032953
-0.055686 -0.049929 -0.050665
-0.055510 -0.049777 -0.049878
-0.055469 -0.049686 -0.049738
-0.055298 -0.049612 -0.049718
-0.055228 -0.049616 -0.049693
-0.055151 -0.049531 -0.049567
-0.055115 -0.049432 -0.049419
-0.054997 -0.049320 -0.049156
-0.054859 -0.049118 -0.048820
-0.054582 -0.048858 -0.048479
-0.054092 -0.048766 -0.048456
-0.052798 -0.048553 -0.047617
-0.050828 -0.047985 -0.047150
-0.048125 -0.047420 -0.046935
-0.043722 -0.047377 -0.046278
-0.039632 -0.046942 -0.046186
-0.035758 -0.046810 -0.045597
-0.031643 -0.046307 -0.045361
-0.029585 -0.045679 -0.045305
-0.026925 -0.045231 -0.044965
-0.025254 -0.043817 -0.044225
-0.021834 -0.043490 -0.043396
-0.020071 -0.043027 -0.042911
-0.017176 -0.043011 -0.041860
-0.015855 -0.040959 -0.041777
-0.011916 -0.040021 -0.040382
-0.010972 -0.038785 -0.039612
-0.010389 -0.037296 -0.038929
-0.009153 -0.036385 -0.038287
-0.008262 -0.033726 -0.036484
-0.008179 -0.033089 -0.034221
-0.006153 -0.029838 -0.031855
-0.004958 -0.026048 -0.030899
-0.055667 -0.049824 -0.050645
-0.055499 -0.049713 -0.049844
-0.055352 -0.049698 -0.049686
-0.055182 -0.049605 -0.049672
-0.055182 -0.049527 -0.049461
-0.055020 -0.049477 -0.049399
-0.055010 -0.049358 -0.049381
-0.054928 -0.049273 -0.049077
-0.054691 -0.048967 -0.048674
-0.054023 -0.048630 -0.048350
-0.053248 -0.048451 -0.047881
-0.052222 -0.047991 -0.047333
-0.049612 -0.047819 -0.046986
-0.047004 -0.047330 -0.046510
-0.041267 -0.046953 -0.046008
-0.037855 -0.046585 -0.045849
-0.033139 -0.045959 -0.045419
-0.030769 -0.045336 -0.044650
-0.027541 -0.045145 -0.044514
-0.025328 -0.043981 -0.043315
-0.022168 -0.043559 -0.043143
-0.020523 -0.042970 -0.042986
-0.018856 -0.042819 -0.041627
-0.016374 -0.042621 -0.041405
-0.012167 -0.040065 -0.040929
-0.011128 -0.039316 -0.040215
-0.009992 -0.037283 -0.038939
-0.009028 -0.036207 -0.038307
-0.007436 -0.036076 -0.037103
-0.006565 -0.032946 -0.035369
-0.005895 -0.032598 -0.033436
-0.003971 -0.028699 -0.031223
-0.001275 -0.025034 -0.030033
-0.055700 -0.049780 -0.050521
-0.055392 -0.049726 -0.049673
-0.055305 -0.049690 -0.049584
-0.055078 -0.049597 -0.049478
-0.055015 -0.049485 -0.049438
-0.054963 -0.049459 -0.049397
-0.054735 -0.049301 -0.049172
-0.054700 -0.049029 -0.048957
-0.054324 -0.048856 -0.048427
-0.053672 -0.048313 -0.048290
-0.051584 -0.047932 -0.047518
-0.050523 -0.047909 -0.046335
-0.049080 -0.047399 -0.045820
-0.042175 -0.046852 -0.045808
-0.038706 -0.046412 -0.045489
-0.034308 -0.045668 -0.045231
-0.031254 -0.045585 -0.044692
-0.029698 -0.045110 -0.043560
-0.027093 -0.043935 -0.043274
-0.023996 -0.043933 -0.042674
-0.020423 -0.043033 -0.042211
-0.018548 -0.042568 -0.041978
-0.015106 -0.042412 -0.040977
-0.013794 -0.041631 -0.040128
-0.010361 -0.039427 -0.040182
-0.008502 -0.038715 -0.039308
-0.006915 -0.036454 -0.038190
-0.006418 -0.035195 -0.037565
-0.005629 -0.033559 -0.036671
-0.003796 -0.032164 -0.034254
-0.002169 -0.030470 -0.032524
-0.000434 -0.026969 -0.030320
0.002503 -0.024951 -0.029031
-0.055630 -0.049767 -0.050454
-0.055348 -0.049605 -0.049598
-0.055028 -0.049481 -0.049569
-0.054999 -0.049448 -0.049456
-0.054820 -0.049396 -0.049297
-0.054790 -0.049381 -0.049257
-0.054541 -0.049199 -0.049135
-0.054247 -0.048865 -0.048742
-0.054173 -0.048524 -0.048346
-0.052608 -0.048187 -0.047426
-0.049679 -0.047621 -0.047358
-0.045768 -0.046587 -0.046167
-0.042484 -0.046427 -0.045515
-0.039758 -0.046177 -0.045288
-0.037725 -0.045668 -0.045027
-0.032154 -0.045085 -0.044368
-0.030069 -0.044881 -0.043704
-0.027576 -0.044604 -0.043034
-0.025484 -0.043283 -0.042659
-0.022460 -0.042631 -0.041759
-0.020007 -0.041756 -0.041445
-0.015753 -0.040954 -0.041074
-0.014723 -0.039862 -0.040464
-0.010293 -0.039830 -0.039814
-0.009342 -0.038171 -0.039389
-0.006652 -0.036654 -0.038142
-0.006358 -0.035313 -0.037286
-0.004343 -0.034246 -0.036909
-0.001261 -0.032601 -0.034560
-0.000350 -0.031482 -0.033206
0.002124 -0.027332 -0.031497
0.004247 -0.026301 -0.029590
0.004866 -0.023912 -0.027943
-0.055565 -0.049719 -0.050290
-0.055221 -0.049505 -0.049600
-0.054763 -0.049403 -0.049447
-0.054713 -0.049321 -0.049345
-0.054477 -0.049202 -0.049268
-0.054422 -0.049180 -0.049100
-0.053875 -0.048910 -0.048876
-0.053870 -0.048818 -0.048577
-0.053426 -0.048242 -0.048089
-0.048542 -0.048052 -0.047284
-0.041269 -0.047394 -0.046976
-0.036880 -0.045953 -0.045743
-0.034948 -0.045686 -0.045112
-0.034010 -0.045163 -0.044427
-0.032263 -0.044850 -0.044240
-0.030902 -0.044173 -0.043822
-0.028448 -0.044069 -0.042974
-0.026205 -0.043729 -0.042936
-0.023653 -0.043243 -0.041844
-0.021061 -0.041809 -0.041293
-0.018744 -0.040921 -0.041050
-0.015008 -0.040533 -0.040976
-0.014250 -0.039544 -0.040311
-0.009325 -0.039049 -0.039318
-0.006865 -0.036585 -0.039210
-0.005047 -0.035523 -0.037405
-0.004280 -0.034997 -0.036654
-0.000542 -0.031830 -0.035249
0.000321 -0.031031 -0.033657
0.002727 -0.027527 -0.032054
0.004799 -0.026158 -0.030926
0.007703 -0.023962 -0.028763
0.009222 -0.020948 -0.027030
-0.055461 -0.049511 -0.050258
-0.054828 -0.049405 -0.049430
-0.054636 -0.049292 -0.049354
-0.054242 -0.048775 -0.049122
-0.054219 -0.048459 -0.049079
-0.053623 -0.048423 -0.048775
-0.053076 -0.047726 -0.048560
-0.052581 -0.047447 -0.048272
-0.051911 -0.047098 -0.047877
-0.046735 -0.046676 -0.047164
-0.039923 -0.046257 -0.046962
-0.033351 -0.045015 -0.045324
-0.028383 -0.044333 -0.044523
-0.026822 -0.044082 -0.044400
-0.026456 -0.043551 -0.043542
-0.024941 -0.042682 -0.042728
-0.022727 -0.042412 -0.042482
-0.021610 -0.041698 -0.042138
-0.020333 -0.041525 -0.041214
-0.018764 -0.041008 -0.040488
-0.017040 -0.039661 -0.040414
-0.013706 -0.038828 -0.039755
-0.010381 -0.037428 -0.039616
-0.009048 -0.036353 -0.038778
-0.005686 -0.035609 -0.037776
-0.002745 -0.034130 -0.036987
-0.000728 -0.032274 -0.036600
0.001033 -0.030611 -0.034547
0.002754 -0.028760 -0.032355
0.003032 -0.026943 -0.031094
0.006338 -0.025262 -0.030750
0.009173 -0.021913 -0.027986
0.010169 -0.019432 -0.024052
-0.054824 -0.049268 -0.050063
-0.054376 -0.048754 -0.049357
-0.054074 -0.048519 -0.049265
-0.053810 -0.048487 -0.048943
-0.053357 -0.047775 -0.048820
-0.052579 -0.046394 -0.048699
-0.052441 -0.046016 -0.048523
-0.051942 -0.044719 -0.048109
-0.051391 -0.043246 -0.047400
-0.046057 -0.042979 -0.047154
-0.038900 -0.041433 -0.046444
-0.032038 -0.039720 -0.045095
-0.025553 -0.038764 -0.044312
-0.024233 -0.038248 -0.043488
-0.022142 -0.037450 -0.043038
-0.021543 -0.036807 -0.042353
-0.019673 -0.035236 -0.042153
-0.018811 -0.035133 -0.041680
-0.017881 -0.034869 -0.041040
-0.016457 -0.034575 -0.040330
-0.015290 -0.033408 -0.039890
-0.011564 -0.033240 -0.039706
-0.008741 -0.032649 -0.038231
-0.006096 -0.032188 -0.037838
-0.002188 -0.032107 -0.037606
-0.000943 -0.030408 -0.036536
0.001987 -0.029502 -0.036048
0.003841 -0.029290 -0.033826
0.004921 -0.026413 -0.031783
0.006372 -0.024726 -0.030186
0.008359 -0.022301 -0.029064
0.009928 -0.020131 -0.026819
0.011785 -0.016766 -0.022671
-0.054647 -0.048553 -0.049871
-0.054012 -0.048370 -0.049187
-0.053493 -0.047892 -0.048934
-0.053083 -0.045817 -0.048740
-0.052806 -0.044633 -0.048654
-0.051927 -0.043145 -0.048308
-0.051925 -0.042798 -0.047938
-0.050877 -0.041787 -0.047588
-0.050333 -0.039328 -0.047250
-0.045541 -0.037791 -0.046865
-0.038418 -0.036795 -0.046293
-0.031712 -0.034683 -0.045071
-0.023831 -0.033218 -0.044198
-0.018623 -0.031870 -0.043355
-0.017693 -0.031098 -0.042526
-0.017102 -0.030155 -0.042236
-0.015835 -0.029680 -0.041496
-0.013857 -0.028841 -0.040611
-0.012074 -0.028671 -0.040061
-0.010651 -0.027448 -0.039901
-0.010256 -0.027293 -0.039307
-0.010231 -0.027050 -0.038716
-0.005771 -0.025976 -0.037918
-0.001456 -0.025809 -0.037672
-0.000226 -0.025483 -0.036910
0.002903 -0.024734 -0.035804
0.004216 -0.024217 -0.035335
0.005535 -0.023247 -0.033222
0.005861 -0.022456 -0.031174
0.007229 -0.021585 -0.029702
0.010354 -0.020113 -0.028072
0.010871 -0.017341 -0.025767
0.014374 -0.016611 -0.021332
-0.054593 -0.048008 -0.049703
-0.053552 -0.047804 -0.049161
-0.052877 -0.046808 -0.048629
-0.052517 -0.044110 -0.048358
-0.052261 -0.043993 -0.048233
-0.051600 -0.041129 -0.047931
-0.051289 -0.040478 -0.047802
-0.050387 -0.039618 -0.047309
-0.049535 -0.037072 -0.046814
-0.045053 -0.034964 -0.046726
-0.038262 -0.030853 -0.045889
-0.031471 -0.030072 -0.044851
-0.022951 -0.028624 -0.043550
-0.017344 -0.026542 -0.043213
-0.012082 -0.026033 -0.042377
-0.009953 -0.024183 -0.041274
-0.009027 -0.023494 -0.041029
-0.007910 -0.022591 -0.040354
-0.006792 -0.022318 -0.039937
-0.003932 -0.021467 -0.039255
-0.003198 -0.021106 -0.038884
-0.000540 -0.020345 -0.038238
-0.000176 -0.019757 -0.037327
0.001629 -0.019435 -0.036782
0.001921 -0.018970 -0.035722
0.003436 -0.017823 -0.034629
0.007022 -0.017811 -0.034464
0.007728 -0.017431 -0.032279
0.009116 -0.016851 -0.030736
0.010073 -0.016155 -0.029129
0.011912 -0.015336 -0.026964
0.014079 -0.014278 -0.025100
0.015658 -0.011730 -0.020805
-0.054230 -0.047929 -0.049338
-0.052831 -0.045161 -0.048833
-0.052351 -0.043609 -0.048614
-0.051965 -0.042609 -0.048315
-0.051487 -0.040893 -0.047981
-0.051420 -0.038890 -0.047692
-0.051138 -0.038455 -0.047048
-0.049640 -0.036475 -0.046657
-0.048968 -0.032001 -0.046516
-0.045043 -0.030850 -0.046081
-0.036554 -0.028254 -0.045741
-0.031284 -0.026391 -0.044817
-0.022679 -0.025439 -0.043536
-0.016346 -0.022387 -0.042647
-0.010492 -0.020170 -0.041866
-0.006354 -0.018634 -0.041039
-0.001785 -0.018153 -0.040982
0.000583 -0.016739 -0.039824
0.000861 -0.016303 -0.038973
0.001902 -0.015755 -0.038866
0.002165 -0.015295 -0.037985
0.004737 -0.015100 -0.037751
0.005165 -0.014447 -0.036988
0.006313 -0.013717 -0.036518
0.006959 -0.013439 -0.035013
0.008163 -0.012887 -0.034021
0.009066 -0.011970 -0.033475
0.009852 -0.011630 -0.032120
0.010858 -0.011053 -0.030219
0.011780 -0.011045 -0.028168
0.013298 -0.009447 -0.026276
0.014901 -0.009067 -0.024273
0.016339 -0.007583 -0.020741
-0.053768 -0.046741 -0.049053
-0.052599 -0.044565 -0.048506
-0.052017 -0.042710 -0.048113
-0.051827 -0.042016 -0.047960
-0.051475 -0.040710 -0.047641
-0.050380 -0.036928 -0.047307
-0.049854 -0.036412 -0.046984
-0.049157 -0.036210 -0.046494
-0.048318 -0.030999 -0.046099
-0.044334 -0.028762 -0.045456
-0.036292 -0.025573 -0.044804
-0.030549 -0.024352 -0.044497
-0.022342 -0.023044 -0.042688
-0.015720 -0.019220 -0.042601
-0.009896 -0.019204 -0.041583
-0.005497 -0.017799 -0.040947
-0.000950 -0.014012 -0.040317
0.003314 -0.012505 -0.039351
0.004928 -0.010848 -0.038742
0.005703 -0.010442 -0.038221
0.006307 -0.010022 -0.037881
0.007283 -0.009557 -0.036867
0.007764 -0.009160 -0.036543
0.008153 -0.008575 -0.035745
0.009537 -0.008162 -0.034910
0.009675 -0.007083 -0.033604
0.010473 -0.006498 -0.032610
0.011622 -0.006455 -0.030963
0.013133 -0.006087 -0.029145
0.013740 -0.004999 -0.026415
0.014592 -0.004505 -0.025626
0.015882 -0.003982 -0.023385
0.017279 -0.003192 -0.020233
-0.053347 -0.044246 -0.049050
-0.051855 -0.042631 -0.048196
-0.051504 -0.040570 -0.047750
-0.050791 -0.039985 -0.047443
-0.050138 -0.037116 -0.046760
-0.050011 -0.035338 -0.046452
-0.049158 -0.034053 -0.046101
-0.047844 -0.031244 -0.045796
-0.046857 -0.030304 -0.045285
-0.043111 -0.028522 -0.045108
-0.036123 -0.024460 -0.044017
-0.029227 -0.021342 -0.043323
-0.021891 -0.019274 -0.042411
-0.014994 -0.017579 -0.041989
-0.009350 -0.015579 -0.041519
-0.004486 -0.014810 -0.040366
0.000236 -0.011879 -0.039634
0.004165 -0.009857 -0.039187
0.005962 -0.007056 -0.038655
0.007814 -0.005687 -0.038131
0.008272 -0.005394 -0.037112
0.008573 -0.005251 -0.036816
0.010187 -0.004679 -0.036182
0.010226 -0.004396 -0.034684
0.010842 -0.003125 -0.034332
0.011612 -0.002869 -0.032772
0.012446 -0.001944 -0.031250
0.013293 -0.001396 -0.030498
0.013591 -0.001260 -0.027886
0.015459 -0.000202 -0.025601
0.015966 0.000550 -0.022914
0.016655 0.001024 -0.022333
0.017706 0.002029 -0.019668
-0.053304 -0.042988 -0.048115
-0.051592 -0.040862 -0.048034
-0.051428 -0.040535 -0.047353
-0.050588 -0.037215 -0.046877
-0.048885 -0.036292 -0.046535
-0.048158 -0.033149 -0.045901
-0.047280 -0.032318 -0.045812
-0.046380 -0.029394 -0.045640
-0.046083 -0.027418 -0.044739
-0.042326 -0.026480 -0.044167
-0.035746 -0.021607 -0.043979
-0.028564 -0.019419 -0.042894
-0.021067 -0.019042 -0.041870
-0.014466 -0.015625 -0.041310
-0.008440 -0.014851 -0.040963
-0.003323 -0.011221 -0.039874
0.000772 -0.010068 -0.039406
0.004554 -0.008630 -0.038257
0.006714 -0.006258 -0.037841
0.008090 -0.004748 -0.037150
0.009783 -0.002548 -0.036460
0.010530 -0.002329 -0.036052
0.010960 -0.001345 -0.035452
0.011709 -0.000630 -0.034404
0.012027 -0.000426 -0.033179
0.012683 0.000342 -0.032124
0.013088 0.001506 -0.030494
0.013947 0.002253 -0.029315
0.015539 0.002732 -0.026890
0.015676 0.003426 -0.024776
0.017369 0.005129 -0.022664
0.018374 0.006940 -0.020751
0.018999 0.007712 -0.018146
-0.052492 -0.040635 -0.048040
-0.050579 -0.039857 -0.047769
-0.049757 -0.037856 -0.047222
-0.048931 -0.035542 -0.046503
-0.048045 -0.034461 -0.046366
-0.047690 -0.031360 -0.045447
-0.045698 -0.028770 -0.045205
-0.045613 -0.028179 -0.044862
-0.043641 -0.024309 -0.043393
-0.040934 -0.023728 -0.042791
-0.035304 -0.020219 -0.042222
-0.027986 -0.018698 -0.041932
-0.020497 -0.016446 -0.041399
-0.014099 -0.014819 -0.040189
-0.008024 -0.012921 -0.039951
-0.002881 -0.009951 -0.039563
0.000874 -0.008455 -0.038624
0.005092 -0.006429 -0.038146
0.006782 -0.005387 -0.037191
0.008753 -0.003908 -0.036669
0.010414 -0.001592 -0.035851
0.011644 -0.001168 -0.035434
0.012447 0.000054 -0.034767
0.012829 0.001104 -0.033848
0.013421 0.001229 -0.033144
0.013884 0.001511 -0.031572
0.014720 0.002085 -0.030465
0.015134 0.003218 -0.027926
0.015599 0.005237 -0.025984
0.017089 0.006495 -0.023765
0.018814 0.006607 -0.020983
0.020063 0.007710 -0.020333
0.020272 0.008764 -0.018107
-0.051149 -0.039629 -0.048031
-0.049910 -0.037977 -0.046954
-0.048832 -0.036189 -0.046784
-0.047482 -0.034746 -0.046364
-0.046281 -0.033943 -0.045143
-0.044997 -0.029211 -0.044941
-0.044104 -0.027104 -0.044458
-0.042032 -0.025171 -0.044205
-0.041581 -0.022436 -0.042681
-0.038599 -0.021108 -0.042404
-0.034295 -0.018676 -0.041628
-0.027664 -0.016938 -0.041601
-0.020306 -0.014141 -0.040432
-0.013727 -0.012978 -0.039771
-0.007952 -0.010069 -0.039229
-0.001904 -0.008555 -0.038672
0.002012 -0.006662 -0.037787
0.005463 -0.005488 -0.037576
0.007378 -0.003770 -0.036440
0.009380 -0.002038 -0.036011
0.010763 -0.001014 -0.035372
0.012021 0.000615 -0.034740
0.013066 0.001428 -0.033905
0.013209 0.002177 -0.032821
0.014540 0.002268 -0.032510
0.015164 0.003972 -0.031274
0.015487 0.004028 -0.029369
0.015840 0.004653 -0.027644
0.016737 0.005560 -0.025710
0.018115 0.006514 -0.022546
0.019052 0.007892 -0.020082
0.020375 0.008154 -0.018279
0.021474 0.010358 -0.016301
-0.050001 -0.039371 -0.047629
-0.049826 -0.036587 -0.046389
-0.047715 -0.035478 -0.046360
-0.046459 -0.033192 -0.046086
-0.043345 -0.032509 -0.044683
-0.042526 -0.028301 -0.044601
-0.041339 -0.026145 -0.043945
-0.039350 -0.025060 -0.042445
-0.037945 -0.021872 -0.041882
-0.034906 -0.018781 -0.041583
-0.033239 -0.017568 -0.040892
-0.027001 -0.013475 -0.040199
-0.020111 -0.011633 -0.039931
-0.013128 -0.010703 -0.039308
-0.007510 -0.008801 -0.038786
-0.001646 -0.006778 -0.038576
0.002722 -0.005288 -0.036914
0.005633 -0.003695 -0.036455
0.008523 -0.003164 -0.035896
0.009687 -0.001299 -0.034931
0.011027 -0.000398 -0.034882
0.012462 0.001445 -0.033753
0.013174 0.002117 -0.032986
0.014683 0.003419 -0.032541
0.015021 0.003825 -0.031880
0.015494 0.004330 -0.029877
0.016548 0.005859 -0.028193
0.016966 0.006501 -0.026251
0.018222 0.007711 -0.023981
0.018273 0.007937 -0.022359
0.019109 0.008579 -0.019984
0.021201 0.011065 -0.018090
0.022166 0.012129 -0.014434
-0.048532 -0.038339 -0.047055
-0.046580 -0.035227 -0.045731
-0.044401 -0.033327 -0.045601
-0.043139 -0.030806 -0.045002
-0.042304 -0.028330 -0.043520
-0.041860 -0.026909 -0.043050
-0.037501 -0.024232 -0.042387
-0.035958 -0.021322 -0.041829
-0.035407 -0.018033 -0.041166
-0.033059 -0.017232 -0.040759
-0.032998 -0.015310 -0.040147
-0.026032 -0.012328 -0.039202
-0.019495 -0.011193 -0.038690
-0.012889 -0.010194 -0.038399
-0.006810 -0.007078 -0.037426
-0.000733 -0.005966 -0.036615
0.003812 -0.005203 -0.035982
0.006202 -0.003462 -0.035874
0.008577 -0.002490 -0.035515
0.010403 -0.000392 -0.034842
0.011713 0.000079 -0.034432
0.012925 0.002389 -0.033354
0.013581 0.002729 -0.031978
0.015046 0.004077 -0.031114
0.016315 0.004931 -0.030819
0.016676 0.005854 -0.029802
0.017553 0.006738 -0.027960
0.017616 0.007264 -0.025194
0.018967 0.008301 -0.023029
0.019104 0.009481 -0.021864
0.020117 0.010003 -0.019797
0.021210 0.011798 -0.017828
0.022499 0.013043 -0.014145
-0.046953 -0.037324 -0.045714
-0.045457 -0.033952 -0.044748
-0.042572 -0.031832 -0.044087
-0.042434 -0.029168 -0.043282
-0.040715 -0.026979 -0.042838
-0.039650 -0.025367 -0.042259
-0.035880 -0.023866 -0.041163
-0.035102 -0.019117 -0.040511
-0.033471 -0.017686 -0.039809
-0.032223 -0.015970 -0.039121
-0.029390 -0.013922 -0.038501
-0.024986 -0.012035 -0.037686
-0.019376 -0.009221 -0.036902
-0.012523 -0.008417 -0.035930
-0.006596 -0.006954 -0.035443
-0.000427 -0.004728 -0.035197
0.004049 -0.003359 -0.034503
0.006568 -0.001758 -0.034229
0.009190 -0.000431 -0.033689
0.010743 0.000661 -0.033404
0.012521 0.001357 -0.032949
0.013310 0.003032 -0.032279
0.014299 0.004457 -0.030745
0.015915 0.005296 -0.030267
0.016858 0.006487 -0.029227
0.017437 0.006683 -0.028443
0.018445 0.007647 -0.027181
0.018637 0.008705 -0.024879
0.020032 0.009563 -0.022870
0.020157 0.011091 -0.021220
0.021333 0.012247 -0.019285
0.022202 0.012965 -0.017220
0.024154 0.013518 -0.013800
-0.045653 -0.034217 -0.045204
-0.043394 -0.033845 -0.044198
-0.041846 -0.030334 -0.043652
-0.038219 -0.027933 -0.042197
-0.037314 -0.026486 -0.041509
-0.035568 -0.023836 -0.040737
-0.034445 -0.023003 -0.040022
-0.033291 -0.017794 -0.039846
-0.031658 -0.017117 -0.039049
-0.030581 -0.015728 -0.038252
-0.027152 -0.011562 -0.037491
-0.024119 -0.010322 -0.035627
-0.018658 -0.008782 -0.034858
-0.011787 -0.007197 -0.033750
-0.005233 -0.006020 -0.033703
0.000114 -0.004333 -0.033110
0.004347 -0.002148 -0.032340
0.006875 -0.000433 -0.031580
0.009346 0.000049 -0.031316
0.011475 0.000737 -0.030698
0.012827 0.003051 -0.029003
0.014023 0.003810 -0.028885
0.015563 0.005018 -0.028419
0.016287 0.005972 -0.027965
0.017177 0.006665 -0.027170
0.018097 0.007890 -0.026062
0.018545 0.008499 -0.025017
0.019986 0.009606 -0.024575
0.020045 0.010378 -0.022818
0.021085 0.011263 -0.020448
0.021992 0.013321 -0.019079
0.023006 0.014121 -0.015663
0.024943 0.014669 -0.012376
-0.044143 -0.033753 -0.044722
-0.042310 -0.030508 -0.043718
-0.038268 -0.028884 -0.041993
-0.037291 -0.027385 -0.041509
-0.036078 -0.026437 -0.041224
-0.034636 -0.022676 -0.038214
-0.033698 -0.021773 -0.037810
-0.032688 -0.017509 -0.036853
-0.030815 -0.015908 -0.036156
-0.027331 -0.012600 -0.035220
-0.026003 -0.010492 -0.033992
-0.023017 -0.009043 -0.032929
-0.017151 -0.007468 -0.032088
-0.010873 -0.006045 -0.031551
-0.004413 -0.004686 -0.030715
0.000791 -0.003683 -0.029792
0.004951 -0.001698 -0.029148
0.008559 -0.000040 -0.028412
0.009425 0.001089 -0.027454
0.011412 0.002996 -0.027081
0.013034 0.005092 -0.026951
0.014142 0.005131 -0.026295
0.016068 0.006042 -0.025604
0.016453 0.006972 -0.024954
0.017475 0.007910 -0.024399
0.018849 0.007938 -0.022342
0.019017 0.009814 -0.022068
0.020211 0.011521 -0.020577
0.020440 0.012282 -0.019467
0.022163 0.012776 -0.019346
0.022463 0.014176 -0.016351
0.023773 0.014934 -0.015281
0.025204 0.016670 -0.012302
-0.043375 -0.031909 -0.044470
-0.041578 -0.028971 -0.042825
-0.037086 -0.027188 -0.041273
-0.036654 -0.026373 -0.040205
-0.034884 -0.025200 -0.038960
-0.031090 -0.021595 -0.036035
-0.029985 -0.019283 -0.034892
-0.028890 -0.017321 -0.034245
-0.027602 -0.012968 -0.032958
-0.026320 -0.011342 -0.031948
-0.022982 -0.009633 -0.031322
-0.022886 -0.008354 -0.030582
-0.016833 -0.006567 -0.029337
-0.010204 -0.005135 -0.029309
-0.004143 -0.003670 -0.028160
0.000969 -0.002440 -0.027232
0.005837 -0.000901 -0.026413
0.008837 0.000363 -0.025809
0.009707 0.001522 -0.025300
0.011623 0.003446 -0.024635
0.013365 0.005106 -0.024115
0.014298 0.005814 -0.023548
0.016360 0.006921 -0.021971
0.016833 0.007683 -0.021303
0.018342 0.008668 -0.020453
0.018859 0.009752 -0.020192
0.020139 0.010885 -0.019166
0.020449 0.012019 -0.018499
0.021982 0.012698 -0.017007
0.022698 0.013118 -0.016619
0.023665 0.014856 -0.016293
0.025017 0.015717 -0.013244
0.027223 0.017283 -0.012141
-0.042561 -0.031091 -0.043115
-0.037223 -0.027480 -0.041974
-0.035543 -0.027138 -0.040989
-0.035026 -0.023339 -0.037202
-0.033933 -0.022150 -0.036048
-0.030151 -0.020580 -0.035312
-0.029067 -0.018082 -0.033683
-0.027563 -0.017201 -0.032993
-0.026378 -0.011874 -0.031722
-0.025046 -0.010548 -0.030856
-0.022032 -0.008651 -0.029837
-0.019892 -0.007576 -0.028521
-0.016494 -0.005916 -0.028154
-0.009411 -0.004155 -0.027690
-0.003678 -0.002432 -0.026999
0.001345 -0.001417 -0.025890
0.006985 -0.000227 -0.023566
