AI/models/basis_lut_1.cube
TITLE "Basis LUT 1"
LUT_3D_SIZE 9
DOMAIN_MIN 0.0 0.0 0.0
DOMAIN_MAX 1.0 1.0 1.0
-0.055779 -0.050004 -0.050695
-0.055494 -0.049848 -0.050020
-0.055448 -0.049522 -0.049674
-0.054618 -0.048937 -0.048756
-0.043121 -0.048028 -0.047492
-0.032490 -0.046182 -0.045921
-0.029756 -0.044298 -0.044049
-0.022883 -0.039816 -0.042284
-0.014107 -0.033295 -0.036164
-0.055667 -0.049824 -0.050645
-0.055182 -0.049527 -0.049461
-0.054691 -0.048967 -0.048674
-0.049612 -0.047819 -0.046986
-0.033139 -0.045959 -0.045419
-0.022168 -0.043559 -0.043143
-0.012167 -0.040065 -0.040929
-0.007436 -0.036076 -0.037103
-0.001275 -0.025034 -0.030033
-0.055461 -0.049511 -0.050258
-0.054219 -0.048459 -0.049079
-0.051911 -0.047098 -0.047877
-0.028383 -0.044333 -0.044523
-0.022727 -0.042412 -0.042482
-0.017040 -0.039661 -0.040414
-0.005686 -0.035609 -0.037776
0.002754 -0.028760 -0.032355
0.010169 -0.019432 -0.024052
-0.054230 -0.047929 -0.049338
-0.051487 -0.040893 -0.047981
-0.048968 -0.032001 -0.046516
-0.022679 -0.025439 -0.043536
-0.001785 -0.018153 -0.040982
0.002165 -0.015295 -0.037985
0.006959 -0.013439 -0.035013
0.010858 -0.011053 -0.030219
0.016339 -0.007583 -0.020741
-0.052492 -0.040635 -0.048040
-0.048045 -0.034461 -0.046366
-0.043641 -0.024309 -0.043393
-0.020497 -0.016446 -0.041399
0.000874 -0.008455 -0.038624
0.010414 -0.001592 -0.035851
0.013421 0.001229 -0.033144
0.015599 0.005237 -0.025984
0.020272 0.008764 -0.018107
-0.046953 -0.037324 -0.045714
-0.040715 -0.026979 -0.042838
-0.033471 -0.017686 -0.039809
-0.019376 -0.009221 -0.036902
0.004049 -0.003359 -0.034503
0.012521 0.001357 -0.032949
0.016858 0.006487 -0.029227
0.020032 0.009563 -0.022870
0.024154 0.013518 -0.013800
-0.042561 -0.031091 -0.043115
-0.033933 -0.022150 -0.036048
-0.026378 -0.011874 -0.031722
-0.016494 -0.005916 -0.028154
0.006985 -0.000227 -0.023566
0.014177 0.005459 -0.020610
0.018815 0.009164 -0.018133
0.022598 0.012985 -0.015091
0.027851 0.018414 -0.011296
-0.034250 -0.026478 -0.035475
-0.026305 -0.016149 -0.028265
-0.021176 -0.008391 -0.024134
-0.010811 -0.002211 -0.020771
0.009683 0.003948 -0.016084
0.015856 0.008281 -0.013712
0.020801 0.014219 -0.010448
0.025026 0.017409 -0.007589
0.032377 0.022559 -0.003688
-0.026084 -0.019383 -0.028005
-0.019208 -0.009294 -0.019649
-0.010619 -0.003771 -0.016112
-0.002119 0.003349 -0.011846
0.013499 0.009213 -0.008794
0.021533 0.013484 -0.006258
0.025140 0.016897 -0.004056
0.030366 0.022153 -0.003001
0.046027 0.027741 -0.000571
-0.055323 -0.049970 -0.050708
-0.054998 -0.049590 -0.049668
-0.054207 -0.048972 -0.048930
-0.046445 -0.047493 -0.046956
-0.031713 -0.046000 -0.045430
-0.026287 -0.042944 -0.043051
-0.021487 -0.040452 -0.041218
-0.014521 -0.035412 -0.036449
-0.008124 -0.027022 -0.031041
-0.054971 -0.049623 -0.050146
-0.054733 -0.049354 -0.049391
-0.052377 -0.048189 -0.047896
-0.033413 -0.044904 -0.044449
-0.009967 -0.043220 -0.042323
-0.002899 -0.040887 -0.040223
0.000893 -0.035965 -0.037273
0.002442 -0.030144 -0.031912
0.007449 -0.019475 -0.023017
-0.053755 -0.048247 -0.049319
-0.051750 -0.046529 -0.047896
-0.050183 -0.045970 -0.047244
-0.020950 -0.040614 -0.043443
0.001288 -0.039297 -0.040279
0.007483 -0.037623 -0.038191
0.011661 -0.031431 -0.034850
0.013722 -0.023408 -0.028454
0.017769 -0.013111 -0.019097
-0.051660 -0.040706 -0.047751
-0.048934 -0.034022 -0.046656
-0.046349 -0.022455 -0.044866
-0.019246 -0.017894 -0.042348
0.006140 -0.015142 -0.039036
0.012725 -0.013320 -0.035996
0.016119 -0.010224 -0.032633
0.019146 -0.008100 -0.025367
0.022265 -0.004614 -0.015903
-0.048958 -0.033443 -0.046007
-0.044496 -0.026277 -0.042913
-0.039685 -0.013881 -0.040968
-0.018176 -0.005725 -0.039361
0.007791 0.000992 -0.037242
0.016106 0.005054 -0.034462
0.019080 0.007601 -0.030673
0.021514 0.009452 -0.022051
0.024327 0.013345 -0.012269
-0.040386 -0.028312 -0.043395
-0.032358 -0.020846 -0.038864
-0.026663 -0.009778 -0.035880
-0.016228 -0.001050 -0.033573
0.009176 0.004291 -0.031932
0.018048 0.009377 -0.029711
0.021321 0.012439 -0.026567
0.024437 0.015880 -0.019136
0.028249 0.017785 -0.009638
-0.033574 -0.023877 -0.035667
-0.026854 -0.015961 -0.030286
-0.019653 -0.006785 -0.025148
-0.010215 0.000885 -0.022101
0.010577 0.007008 -0.019052
0.019303 0.010990 -0.016094
0.024032 0.015562 -0.013970
0.027394 0.018672 -0.011018
0.031896 0.023137 -0.006417
-0.028509 -0.018808 -0.027424
-0.019305 -0.010778 -0.022436
-0.012556 -0.002191 -0.017212
-0.004667 0.005070 -0.014118
0.013042 0.010661 -0.009025
0.022964 0.016193 -0.007717
0.026631 0.018419 -0.004709
0.029927 0.022993 -0.001423
0.035127 0.028505 0.003164
-0.019293 -0.013896 -0.019468
-0.011525 -0.005229 -0.013460
-0.005946 0.002255 -0.008791
0.001822 0.009763 -0.005492
0.016804 0.015598 -0.001907
0.026424 0.019604 0.000986
0.029821 0.022514 0.002767
0.033140 0.027807 0.006008
0.049770 0.034813 0.010101
-0.054704 -0.049683 -0.050302
-0.053498 -0.049113 -0.049129
-0.051813 -0.047591 -0.047838
-0.037614 -0.045552 -0.044976
-0.026496 -0.043265 -0.042962
-0.021623 -0.041277 -0.040652
-0.015059 -0.037618 -0.036668
-0.008671 -0.029806 -0.033217
-0.002578 -0.020899 -0.024242
-0.052293 -0.049048 -0.049568
-0.050600 -0.048245 -0.048551
-0.048443 -0.045618 -0.046671
-0.029120 -0.043762 -0.043308
-0.005215 -0.041789 -0.040213
0.001245 -0.038276 -0.037881
0.005012 -0.033953 -0.033793
0.008269 -0.024804 -0.027054
0.012291 -0.016805 -0.017992
-0.050847 -0.047030 -0.048153
-0.048753 -0.044923 -0.046778
-0.046424 -0.041795 -0.044944
-0.018983 -0.039386 -0.042333
0.006586 -0.038409 -0.039125
0.016912 -0.035876 -0.035918
0.019249 -0.029246 -0.032305
0.020974 -0.019566 -0.023931
0.023942 -0.009650 -0.013886
-0.049213 -0.035909 -0.046575
-0.046701 -0.027427 -0.044835
-0.045180 -0.020251 -0.043824
-0.017907 -0.015887 -0.041693
0.008769 -0.013422 -0.038331
0.020251 -0.011328 -0.034841
0.022790 -0.008888 -0.030110
0.024395 -0.006578 -0.021106
0.026367 -0.001386 -0.011379
-0.045908 -0.027825 -0.042445
-0.041269 -0.021329 -0.040860
-0.038055 -0.008322 -0.038815
-0.017275 0.000957 -0.037321
0.009727 0.007555 -0.035721
0.022445 0.009972 -0.033349
0.024559 0.010988 -0.028446
0.026919 0.013047 -0.018888
0.029665 0.016510 -0.008367
-0.035943 -0.023113 -0.038783
-0.027221 -0.016091 -0.035221
-0.023723 -0.005670 -0.032915
-0.015468 0.006389 -0.031545
0.010625 0.011784 -0.029268
0.023776 0.015483 -0.027933
0.026932 0.017999 -0.025325
0.028988 0.019801 -0.016033
0.031805 0.022857 -0.006572
-0.028316 -0.018576 -0.030413
-0.021457 -0.010736 -0.024108
-0.014708 -0.001439 -0.020103
-0.007089 0.007676 -0.018353
0.012132 0.013617 -0.015112
0.025307 0.017277 -0.013093
0.028345 0.020250 -0.011044
0.030917 0.023677 -0.007840
0.034468 0.026490 -0.003022
-0.021446 -0.014243 -0.023075
-0.014942 -0.006424 -0.016814
-0.007713 0.002671 -0.011944
-0.000786 0.011138 -0.007967
0.015328 0.016387 -0.004863
0.027014 0.020074 -0.002801
0.030011 0.024143 0.000015
0.032984 0.026554 0.002817
0.038181 0.030997 0.006265
-0.012988 -0.009071 -0.014699
-0.006260 -0.000754 -0.007991
-0.001201 0.008097 -0.004212
0.004203 0.015132 0.000059
0.018369 0.022068 0.003430
0.029330 0.024097 0.005918
0.033291 0.027525 0.008954
0.036621 0.030505 0.012099
0.051856 0.037891 0.017810
-0.053374 -0.048572 -0.047874
-0.051282 -0.046575 -0.044203
-0.048712 -0.044529 -0.037535
-0.031901 -0.041796 -0.032837
-0.022741 -0.040587 -0.028272
-0.016700 -0.037977 -0.026028
-0.010946 -0.034198 -0.023879
-0.005878 -0.026403 -0.020775
0.000899 -0.016547 -0.015879
-0.050421 -0.046769 -0.041726
-0.048461 -0.043035 -0.035726
-0.046598 -0.041749 -0.029710
-0.022747 -0.039487 -0.024902
-0.000303 -0.037575 -0.022274
0.004297 -0.035701 -0.019843
0.007342 -0.029745 -0.017754
0.011587 -0.019755 -0.016638
0.015741 -0.011902 -0.011756
-0.048313 -0.042438 -0.030356
-0.046741 -0.038549 -0.025647
-0.046182 -0.036994 -0.018591
-0.018304 -0.036239 -0.017734
0.007710 -0.034749 -0.017188
0.019125 -0.032126 -0.016774
0.021387 -0.027117 -0.016181
0.023077 -0.014871 -0.014734
0.025810 -0.005052 -0.009789
-0.047169 -0.028842 -0.026072
-0.045392 -0.021838 -0.021776
-0.044520 -0.016409 -0.017345
-0.017598 -0.015002 -0.017128
0.010000 -0.012075 -0.016617
0.023332 -0.009493 -0.016097
0.025391 -0.007025 -0.015247
0.026878 -0.003879 -0.013568
0.029975 0.000163 -0.007594
-0.042190 -0.022894 -0.025129
-0.039498 -0.016384 -0.020303
-0.037035 -0.003384 -0.016879
-0.017075 0.005680 -0.016658
0.011047 0.010460 -0.016319
0.025392 0.011689 -0.015667
0.027806 0.013561 -0.014322
0.030105 0.015287 -0.011838
0.031913 0.019585 -0.003978
-0.030010 -0.019657 -0.023457
-0.023288 -0.011917 -0.018338
-0.019088 -0.000094 -0.016437
-0.012879 0.010456 -0.015873
0.011618 0.015677 -0.015375
0.026545 0.018293 -0.014592
0.029676 0.021778 -0.013179
0.031776 0.023579 -0.009238
0.034686 0.026587 -0.000764
-0.022476 -0.014684 -0.019547
-0.015784 -0.006483 -0.016521
-0.010978 0.003097 -0.014727
-0.004050 0.011914 -0.012988
0.013258 0.018883 -0.011121
0.027349 0.021452 -0.009688
0.030940 0.023799 -0.008405
0.034087 0.027268 -0.005125
0.038152 0.030330 0.002352
-0.015935 -0.010150 -0.015818
-0.009152 -0.001934 -0.010506
-0.003507 0.006713 -0.006932
0.001865 0.015257 -0.003140
0.016745 0.020270 -0.000135
0.029029 0.024189 0.002025
0.032878 0.027609 0.004244
0.036337 0.029969 0.005835
0.040717 0.034059 0.010123
-0.009532 -0.006151 -0.007048
-0.002545 0.003092 -0.001500
0.002262 0.011070 0.001341
0.007602 0.020100 0.004854
0.020295 0.024163 0.008223
0.031500 0.027228 0.011331
0.035390 0.031503 0.012772
0.039204 0.034651 0.016197
0.054114 0.040016 0.021497
-0.051441 -0.046793 -0.043306
-0.048987 -0.043901 -0.035051
-0.046738 -0.038214 -0.028912
-0.027483 -0.035814 -0.024297
-0.017462 -0.031316 -0.020549
-0.012519 -0.029112 -0.014239
-0.007498 -0.026368 -0.010443
-0.001540 -0.019977 -0.005916
0.004452 -0.011199 -0.000299
-0.049017 -0.042408 -0.030644
-0.046734 -0.037862 -0.025309
-0.044932 -0.034576 -0.020312
-0.021745 -0.030509 -0.015753
0.001955 -0.027353 -0.011338
0.006487 -0.024798 -0.006996
0.010092 -0.021458 -0.002255
0.013522 -0.014112 0.001259
0.019023 -0.005948 0.006822
-0.046681 -0.036305 -0.020434
-0.045500 -0.033341 -0.012985
-0.044155 -0.029342 -0.006336
-0.017603 -0.028143 -0.002778
0.009005 -0.024454 0.000206
0.020043 -0.021752 0.003386
0.022938 -0.019413 0.005470
0.025032 -0.010976 0.008071
0.028441 -0.002351 0.011293
-0.044817 -0.026209 -0.017208
-0.043836 -0.018035 -0.005445
-0.043332 -0.011175 0.008088
-0.017121 -0.008854 0.010465
0.010397 -0.007954 0.011003
0.024587 -0.005777 0.011423
0.027104 -0.003822 0.011798
0.028886 -0.000567 0.012271
0.031419 0.004731 0.013945
-0.040463 -0.018269 -0.013692
-0.037276 -0.011092 -0.003668
-0.035168 0.000194 0.009643
-0.016369 0.007169 0.011209
0.011836 0.013382 0.012211
0.026752 0.013637 0.012190
0.029412 0.015573 0.012618
0.031493 0.018820 0.013394
0.034382 0.022933 0.015569
-0.026440 -0.015065 -0.012234
-0.021248 -0.007009 -0.001912
-0.016339 0.003022 0.010039
-0.010633 0.014406 0.011849
0.012265 0.019950 0.012319
0.028140 0.024001 0.012786
0.032454 0.025720 0.013207
0.034395 0.027575 0.014418
0.037213 0.030065 0.016723
-0.017707 -0.012065 -0.010994
-0.013313 -0.002117 0.001278
-0.007354 0.006708 0.011044
-0.000523 0.016385 0.012519
0.014665 0.022464 0.013083
0.028586 0.026237 0.013518
0.033445 0.027778 0.014472
0.036873 0.030403 0.015663
0.039402 0.033838 0.018445
-0.011761 -0.008393 -0.007786
-0.005660 0.002027 0.005483
-0.000317 0.010449 0.012248
0.005805 0.019829 0.013970
0.017944 0.024542 0.014628
0.030021 0.028481 0.015580
0.035902 0.030607 0.017217
0.038171 0.033373 0.018466
0.042445 0.036840 0.020115
-0.005688 -0.003863 -0.002988
0.000666 0.007152 0.009220
0.005303 0.014665 0.014463
0.011836 0.023346 0.016991
0.023176 0.027929 0.018136
0.032895 0.031579 0.019264
0.038240 0.034382 0.020340
0.040897 0.037675 0.021887
0.056146 0.041868 0.025938
-0.050287 -0.043806 -0.035658
-0.047262 -0.037879 -0.029089
-0.043613 -0.033336 -0.022427
-0.023723 -0.029024 -0.018319
-0.014492 -0.026498 -0.014557
-0.008891 -0.021278 -0.009719
-0.001730 -0.018712 -0.004581
0.002648 -0.012782 -0.000208
0.009790 -0.006308 0.006154
-0.047609 -0.037448 -0.024583
-0.043861 -0.032242 -0.019686
-0.040718 -0.027361 -0.014872
-0.019273 -0.023364 -0.010101
0.003044 -0.019166 -0.006486
0.008060 -0.015787 -0.002145
0.012003 -0.012647 0.003577
0.016582 -0.007704 0.007917
0.022244 -0.001044 0.013787
-0.044474 -0.032863 -0.016898
-0.041838 -0.026252 -0.007748
-0.039618 -0.022388 -0.003626
-0.017070 -0.018135 0.000709
0.009410 -0.015400 0.003539
0.021307 -0.011092 0.006612
0.024015 -0.008447 0.010973
0.026873 -0.003939 0.014421
0.030463 0.003327 0.020439
-0.042407 -0.021245 -0.012146
-0.040179 -0.015054 -0.001633
-0.038986 -0.008762 0.012420
-0.016202 -0.006432 0.014673
0.011060 -0.004598 0.017072
0.025686 -0.002876 0.018691
0.028614 -0.000509 0.021042
0.030704 0.002570 0.023620
0.033739 0.008526 0.027607
-0.037900 -0.015750 -0.008353
-0.035152 -0.008039 0.002707
-0.032958 0.001883 0.017188
-0.015464 0.009402 0.024554
0.011883 0.014116 0.027004
0.027579 0.016058 0.027810
0.031023 0.018959 0.028420
0.033011 0.022375 0.029215
0.036368 0.026267 0.030768
-0.022297 -0.011928 -0.006455
-0.017299 -0.002809 0.005323
-0.013043 0.006781 0.018576
-0.009187 0.016335 0.026632
0.012680 0.023982 0.028090
0.028516 0.028015 0.028768
0.034348 0.029648 0.029693
0.036597 0.031070 0.030651
0.039328 0.034421 0.032424
-0.014780 -0.007842 -0.004795
-0.008829 0.000723 0.006258
-0.003746 0.010994 0.019640
0.001396 0.018921 0.027537
0.015790 0.025401 0.029161
0.029806 0.030567 0.029889
0.036042 0.033671 0.030906
0.038792 0.035129 0.031436
0.042012 0.037369 0.033427
-0.008477 -0.005047 -0.002723
-0.003835 0.004982 0.009389
0.002075 0.013804 0.021502
0.008267 0.021839 0.028873
0.018838 0.028652 0.030137
0.032052 0.032375 0.030860
0.037975 0.035423 0.032225
0.040940 0.037378 0.033557
0.044306 0.040108 0.035337
-0.003452 -0.001097 -0.000105
0.002848 0.010425 0.014721
0.008480 0.018720 0.025224
0.013935 0.026434 0.030505
0.024762 0.031842 0.031899
0.034427 0.035379 0.033099
0.039744 0.037744 0.034299
0.043901 0.040455 0.036289
0.057232 0.043043 0.037630
-0.048063 -0.038146 -0.028379
-0.042795 -0.032658 -0.021389
-0.038523 -0.027335 -0.016474
-0.022464 -0.024313 -0.011626
-0.010872 -0.019340 -0.009038
-0.004979 -0.016860 -0.003625
0.000922 -0.012097 0.000512
0.007336 -0.007943 0.004924
0.016698 -0.001508 0.013569
-0.043217 -0.033177 -0.021248
-0.038086 -0.027132 -0.013324
-0.033064 -0.020688 -0.009160
-0.017339 -0.016718 -0.004761
0.005739 -0.014073 -0.000301
0.010486 -0.009493 0.004113
0.016390 -0.005808 0.008551
0.019688 -0.000494 0.014178
0.026423 0.005605 0.020005
-0.040462 -0.028480 -0.015252
-0.034521 -0.020314 -0.004452
-0.029387 -0.015603 0.000233
-0.016331 -0.011908 0.004166
0.010610 -0.007053 0.008217
0.022867 -0.003800 0.011252
0.025609 -0.000152 0.015331
0.028867 0.003700 0.020078
0.032510 0.010133 0.026420
-0.035361 -0.019048 -0.009280
-0.030942 -0.010061 0.001931
-0.028459 -0.006212 0.014840
-0.015396 -0.002716 0.017461
0.011774 -0.000958 0.018964
0.026911 0.001720 0.021831
0.030081 0.006735 0.024944
0.032491 0.008640 0.027305
0.037192 0.015650 0.032367
-0.032261 -0.012353 -0.004613
-0.028145 -0.003592 0.006423
-0.025519 0.006383 0.019887
-0.014076 0.014138 0.028554
0.012703 0.016751 0.028776
0.028452 0.018577 0.030211
0.032723 0.022958 0.031982
0.035753 0.026181 0.034169
0.039350 0.029811 0.036034
-0.019674 -0.008635 -0.001425
-0.014245 0.001417 0.009245
-0.010447 0.010116 0.022014
-0.005972 0.019937 0.030965
0.014013 0.027778 0.034096
0.029229 0.029928 0.034648
0.035996 0.031778 0.036175
0.038756 0.034203 0.037473
0.041792 0.037169 0.038715
-0.011804 -0.004099 0.000847
-0.005074 0.005763 0.011057
0.000396 0.013966 0.024354
0.005327 0.022302 0.032286
0.016550 0.028654 0.034705
0.030697 0.034104 0.036872
0.037437 0.036050 0.037402
0.040853 0.038111 0.038266
0.044037 0.040685 0.040080
-0.006656 -0.001442 0.001493
0.000455 0.010487 0.014850
0.006596 0.017677 0.026182
0.011921 0.025623 0.033879
0.021888 0.030999 0.036172
0.033574 0.035584 0.037888
0.039720 0.039436 0.039014
0.044226 0.041608 0.039840
0.048520 0.044603 0.042033
-0.001976 0.002256 0.004375
0.006607 0.015274 0.020139
0.012105 0.024069 0.030303
0.018200 0.029997 0.035432
0.025698 0.035192 0.037436
0.035458 0.038188 0.039256
0.041456 0.041800 0.040674
0.047353 0.043977 0.041773
0.058639 0.046373 0.043384
-0.046169 -0.034559 -0.021420
-0.035688 -0.027398 -0.014895
-0.028938 -0.021306 -0.009526
-0.018549 -0.017429 -0.005981
-0.005979 -0.014904 -0.001760
0.000155 -0.011956 0.002604
0.008126 -0.008799 0.007114
0.014280 -0.004588 0.012977
0.022706 0.000822 0.019008
-0.037938 -0.028248 -0.016179
-0.028832 -0.019760 -0.008219
-0.022865 -0.015081 -0.003653
-0.014700 -0.010112 0.001233
0.009199 -0.006369 0.005362
0.015714 -0.004097 0.010137
0.019268 0.000661 0.015582
0.024892 0.004258 0.020186
0.031434 0.010754 0.026289
-0.035133 -0.024020 -0.012267
-0.024389 -0.013583 -0.000084
-0.018393 -0.008360 0.004502
-0.013098 -0.004325 0.008908
0.012040 -0.001155 0.011829
0.024252 0.001546 0.015763
0.027922 0.005472 0.020620
0.031343 0.009968 0.025701
0.035635 0.016724 0.031516
-0.029602 -0.017318 -0.006841
-0.020827 -0.005891 0.004899
-0.016212 -0.002085 0.016200
-0.011488 0.001696 0.020423
0.013022 0.004130 0.022003
0.028168 0.009567 0.024735
0.031881 0.013489 0.027458
0.034467 0.017185 0.031739
0.040439 0.025490 0.037271
-0.022857 -0.010567 -0.002874
-0.017789 -0.000461 0.009429
-0.014252 0.009553 0.022059
-0.009821 0.016037 0.029560
0.014192 0.020055 0.030871
0.029491 0.022176 0.032472
0.034055 0.026353 0.034247
0.037680 0.029815 0.036451
0.042755 0.033786 0.039558
-0.016064 -0.005368 0.001993
-0.010355 0.005561 0.013143
-0.006418 0.013861 0.024756
-0.003814 0.022531 0.032626
0.016346 0.028782 0.035129
0.030620 0.031594 0.036347
0.036940 0.033953 0.038431
0.040395 0.036705 0.040669
0.044427 0.040408 0.043387
-0.009589 -0.001179 0.004753
-0.001188 0.010013 0.016203
0.004007 0.017831 0.026999
0.007854 0.025880 0.034260
0.019157 0.032059 0.036829
0.032185 0.036176 0.039918
0.039100 0.039618 0.042463
0.043169 0.041294 0.043531
0.047528 0.044470 0.046475
-0.004999 0.003850 0.008156
0.004754 0.015226 0.020276
0.010848 0.022429 0.030122
0.016807 0.028532 0.036056
0.023563 0.034225 0.038866
0.035098 0.038264 0.042039
0.041077 0.042422 0.044504
0.048640 0.046877 0.048184
0.050956 0.047909 0.049053
0.000697 0.009014 0.011497
0.010384 0.021125 0.025965
0.017066 0.027811 0.033884
0.023099 0.032540 0.038325
0.028192 0.037331 0.042994
0.038521 0.041180 0.044846
0.044315 0.044460 0.047347
0.049891 0.048721 0.049690
0.066259 0.052362 0.050931
-0.044694 -0.025684 -0.010307
-0.027698 -0.019341 -0.007030
-0.019599 -0.016012 -0.002064
-0.011511 -0.011012 0.001628
0.000749 -0.009096 0.006605
0.009252 -0.006462 0.010584
0.015975 -0.003621 0.015658
0.023554 0.000335 0.021615
0.035888 0.006761 0.031475
-0.033973 -0.022057 -0.006961
-0.019321 -0.013193 -0.001635
-0.012164 -0.007506 0.003041
-0.006196 -0.003325 0.006974
0.012315 -0.000353 0.012246
0.021551 0.002976 0.016651
0.024041 0.006102 0.020835
0.030994 0.010733 0.026691
0.041066 0.017164 0.035491
-0.029331 -0.018114 -0.004077
-0.014696 -0.006861 0.004752
-0.009319 -0.001505 0.009914
-0.002226 0.002838 0.013788
0.014285 0.006061 0.017832
0.028042 0.008603 0.022559
0.031216 0.013264 0.027402
0.035812 0.018089 0.032042
0.043506 0.022237 0.039820
-0.024679 -0.012111 -0.000281
-0.010703 -0.001071 0.010830
-0.004864 0.004501 0.019781
0.000073 0.007309 0.024058
0.015506 0.011991 0.025829
0.030279 0.015849 0.028996
0.034498 0.021063 0.033292
0.038390 0.025487 0.036989
0.049268 0.033208 0.042176
-0.015853 -0.006903 0.004417
-0.007630 0.004990 0.014531
-0.002485 0.014197 0.024545
0.001004 0.019119 0.031533
0.017588 0.022856 0.033505
0.031403 0.026317 0.035230
0.036738 0.029536 0.037612
0.040571 0.034800 0.040615
0.051352 0.040036 0.045515
-0.010653 -0.003843 0.010186
-0.002962 0.010203 0.020212
0.001686 0.019294 0.027940
0.005925 0.025814 0.034462
0.019458 0.031834 0.037165
0.033345 0.035064 0.039336
0.040249 0.037467 0.041538
0.044004 0.041169 0.043667
0.053690 0.045104 0.048731
-0.005137 0.002083 0.018946
0.005591 0.016694 0.024017
0.008495 0.023191 0.032014
0.011228 0.029218 0.036519
0.020792 0.034452 0.039738
0.035165 0.039636 0.043119
0.041428 0.042542 0.045622
0.047020 0.044673 0.047705
0.055506 0.047552 0.051167
-0.000789 0.011177 0.023787
0.012569 0.021158 0.029686
0.017866 0.026962 0.036197
0.021555 0.032990 0.039885
0.027395 0.036876 0.042390
0.037555 0.042529 0.046054
0.044829 0.046856 0.050805
0.050145 0.048850 0.052079
0.057201 0.051563 0.054224
0.002931 0.020962 0.028113
0.017712 0.027777 0.033753
0.022125 0.032538 0.040048
0.025738 0.037288 0.042785
0.030933 0.040244 0.046153
0.040412 0.044596 0.050478
0.045600 0.047806 0.059559
0.052688 0.052362 0.062357
0.076616 0.074069 0.076280
