AI/models/basis_lut_2.cube
TITLE "Basis LUT 2"
LUT_3D_SIZE 33
-0.126766 -0.087769 -0.127310
-0.126562 -0.087642 -0.118280
-0.125737 -0.086806 -0.114665
-0.125532 -0.085502 -0.112515
-0.125534 -0.085084 -0.111487
-0.125491 -0.084639 -0.109965
-0.125438 -0.084380 -0.108990
-0.125387 -0.083902 -0.108003
-0.125307 -0.083656 -0.104871
-0.125246 -0.083568 -0.101142
-0.125203 -0.082998 -0.090959
-0.124933 -0.082530 -0.085101
-0.124879 -0.081952 -0.075767
-0.124725 -0.081267 -0.066810
-0.124543 -0.081116 -0.055973
-0.124499 -0.078820 -0.048697
-0.124272 -0.078472 -0.042830
-0.124044 -0.078025 -0.041136
-0.123925 -0.077895 -0.037889
-0.123665 -0.075792 -0.036007
-0.123555 -0.073718 -0.032647
-0.123295 -0.071695 -0.032515
-0.122404 -0.071091 -0.028835
-0.122280 -0.063487 -0.027134
-0.122147 -0.063294 -0.026093
-0.120148 -0.061544 -0.025738
-0.119586 -0.059549 -0.024891
-0.117301 -0.054608 -0.021778
-0.115887 -0.049793 -0.019458
-0.113850 -0.048692 -0.019368
-0.113386 -0.044820 -0.019095
-0.107451 -0.043360 -0.017992
-0.103322 -0.041720 -0.013393
-0.126686 -0.087411 -0.127129
-0.126437 -0.086967 -0.118181
-0.125421 -0.085117 -0.113605
-0.125265 -0.083835 -0.111554
-0.125154 -0.083614 -0.109453
-0.125133 -0.083539 -0.108194
-0.125112 -0.083474 -0.106938
-0.125075 -0.083058 -0.106429
-0.125049 -0.083027 -0.104574
-0.125011 -0.082948 -0.097743
-0.124867 -0.082661 -0.090628
-0.124633 -0.081444 -0.080928
-0.124613 -0.080850 -0.071428
-0.124544 -0.080792 -0.061505
-0.124478 -0.079181 -0.053293
-0.124237 -0.078423 -0.044353
-0.124099 -0.077819 -0.039311
-0.123909 -0.077031 -0.032474
-0.123557 -0.076011 -0.029963
-0.123433 -0.073731 -0.026610
-0.123339 -0.072879 -0.024880
-0.122939 -0.071471 -0.023077
-0.122006 -0.068675 -0.021527
-0.121601 -0.063460 -0.020440
-0.121012 -0.059127 -0.019428
-0.119620 -0.057640 -0.018734
-0.119465 -0.055026 -0.017959
-0.116313 -0.053472 -0.016637
-0.114103 -0.049131 -0.013834
-0.113847 -0.047696 -0.012732
-0.108897 -0.043985 -0.011413
-0.105368 -0.039807 -0.009424
-0.102794 -0.039320 -0.007799
-0.125876 -0.085922 -0.126570
-0.125616 -0.085309 -0.116236
-0.125368 -0.084896 -0.113148
-0.125237 -0.083701 -0.111394
-0.125042 -0.083168 -0.109059
-0.124906 -0.082894 -0.107212
-0.124882 -0.082622 -0.105636
-0.124823 -0.082442 -0.103053
-0.124739 -0.082141 -0.100590
-0.124711 -0.081890 -0.096539
-0.124618 -0.081434 -0.088316
-0.124506 -0.080971 -0.078994
-0.124487 -0.080014 -0.069536
-0.124312 -0.079998 -0.060436
-0.124281 -0.078535 -0.052407
-0.124044 -0.077747 -0.041560
-0.123905 -0.077136 -0.037242
-0.123903 -0.076461 -0.027394
-0.123490 -0.074961 -0.024970
-0.123291 -0.073664 -0.018511
-0.123023 -0.072618 -0.016603
-0.122048 -0.069777 -0.015253
-0.121606 -0.067757 -0.014204
-0.121329 -0.062882 -0.013314
-0.119979 -0.058779 -0.011931
-0.118841 -0.055652 -0.010835
-0.118033 -0.052998 -0.009894
-0.115054 -0.049636 -0.008735
-0.113366 -0.048630 -0.007145
-0.112008 -0.045250 -0.005674
-0.107556 -0.040484 -0.003789
-0.103873 -0.038568 -0.001694
-0.100194 -0.036699 -0.000661
-0.125809 -0.085349 -0.126542
-0.125454 -0.084856 -0.116103
-0.125191 -0.084546 -0.112403
-0.125104 -0.083439 -0.111333
-0.124943 -0.083110 -0.109015
-0.124764 -0.082680 -0.107197
-0.124742 -0.082547 -0.105321
-0.124719 -0.082102 -0.102979
-0.124660 -0.081989 -0.100001
-0.124633 -0.081334 -0.094106
-0.124534 -0.080842 -0.086518
-0.124382 -0.080607 -0.077762
-0.124385 -0.079694 -0.067854
-0.124253 -0.079322 -0.056826
-0.124155 -0.077690 -0.049124
-0.123934 -0.077189 -0.039021
-0.123732 -0.076459 -0.029563
-0.123639 -0.075739 -0.023525
-0.123116 -0.074896 -0.015720
-0.122869 -0.073389 -0.011135
-0.122492 -0.071604 -0.010450
-0.121754 -0.068722 -0.009581
-0.121398 -0.064510 -0.008328
-0.120719 -0.060637 -0.007295
-0.119790 -0.057731 -0.006380
-0.117866 -0.053403 -0.005546
-0.116782 -0.051988 -0.004725
-0.115036 -0.048341 -0.003867
-0.112513 -0.047198 -0.002818
-0.111321 -0.040303 0.001033
-0.106692 -0.038707 0.002193
-0.102535 -0.037416 0.003836
-0.099987 -0.032836 0.005545
-0.125613 -0.085210 -0.126333
-0.125293 -0.084613 -0.115934
-0.125088 -0.083825 -0.111904
-0.124963 -0.083175 -0.110748
-0.124896 -0.083006 -0.108765
-0.124750 -0.082252 -0.106828
-0.124623 -0.082093 -0.105199
-0.124639 -0.081703 -0.102758
-0.124591 -0.081219 -0.099685
-0.124521 -0.080653 -0.093257
-0.124376 -0.080405 -0.084881
-0.124354 -0.079930 -0.076222
-0.124218 -0.078788 -0.066632
-0.124091 -0.077727 -0.056605
-0.124099 -0.077572 -0.045481
-0.123848 -0.076096 -0.035641
-0.123594 -0.075350 -0.026228
-0.123578 -0.075246 -0.019655
-0.123107 -0.074359 -0.010551
-0.122706 -0.071356 -0.008053
-0.122059 -0.069944 -0.004800
-0.121560 -0.066354 -0.004506
-0.120838 -0.064370 -0.004094
-0.120133 -0.060536 -0.003222
-0.118999 -0.055833 -0.002161
-0.117280 -0.051891 -0.000769
-0.115689 -0.048676 0.001045
-0.113176 -0.046020 0.002825
-0.111977 -0.045623 0.006616
-0.110207 -0.039725 0.007183
-0.105712 -0.037151 0.009190
-0.101785 -0.035412 0.010764
-0.099601 -0.031172 0.013570
-0.125529 -0.085038 -0.126246
-0.125282 -0.083563 -0.115727
-0.125061 -0.083373 -0.111279
-0.124944 -0.083070 -0.109909
-0.124707 -0.082690 -0.106835
-0.124602 -0.082164 -0.105935
-0.124583 -0.081593 -0.104331
-0.124604 -0.080857 -0.102419
-0.124488 -0.080037 -0.099173
-0.124327 -0.079613 -0.091887
-0.124310 -0.079389 -0.083976
-0.124188 -0.078857 -0.075257
-0.124118 -0.078146 -0.064258
-0.124077 -0.077720 -0.054793
-0.123941 -0.076224 -0.044850
-0.123638 -0.075355 -0.034136
-0.123386 -0.075235 -0.025199
-0.123378 -0.073880 -0.016303
-0.123024 -0.072861 -0.009176
-0.122671 -0.070816 -0.000116
-0.122061 -0.067799 0.002764
-0.121302 -0.065266 0.005959
-0.120532 -0.063026 0.006229
-0.120084 -0.058967 0.006768
-0.118489 -0.053366 0.008601
-0.116900 -0.050707 0.009166
-0.115555 -0.047332 0.009894
-0.112756 -0.044456 0.011294
-0.111367 -0.041727 0.012883
-0.109249 -0.038719 0.016641
-0.104773 -0.036542 0.017254
-0.100716 -0.035003 0.018311
-0.098480 -0.030190 0.026928
-0.125381 -0.084236 -0.126066
-0.125133 -0.083069 -0.115557
-0.125049 -0.082446 -0.111122
-0.124796 -0.082402 -0.109579
-0.124687 -0.081710 -0.106659
-0.124501 -0.080773 -0.101873
-0.124349 -0.080701 -0.101283
-0.124329 -0.080295 -0.099708
-0.124212 -0.079270 -0.098186
-0.124178 -0.078972 -0.091154
-0.124161 -0.078745 -0.082430
-0.124084 -0.078583 -0.074040
-0.123937 -0.077652 -0.063666
-0.123877 -0.076928 -0.053200
-0.123658 -0.075785 -0.043489
-0.123441 -0.075141 -0.032378
-0.123272 -0.074961 -0.023159
-0.122916 -0.072838 -0.014355
-0.122882 -0.070644 -0.004847
-0.122285 -0.070566 0.001927
-0.121580 -0.067454 0.007433
-0.121035 -0.065094 0.014210
-0.120195 -0.062549 0.017328
-0.119236 -0.057231 0.017547
-0.118047 -0.052964 0.020308
-0.116529 -0.050459 0.021303
-0.114986 -0.045887 0.021769
-0.112100 -0.042130 0.023143
-0.110968 -0.041476 0.024413
-0.107420 -0.038703 0.024896
-0.104060 -0.036143 0.027129
-0.100313 -0.031538 0.028815
-0.097586 -0.029117 0.037079
-0.125180 -0.083740 -0.126032
-0.125028 -0.082435 -0.115508
-0.124824 -0.082351 -0.110744
-0.124652 -0.081925 -0.109132
-0.124618 -0.080984 -0.105916
-0.124321 -0.080190 -0.100039
-0.124256 -0.078857 -0.096800
-0.124192 -0.078486 -0.094700
-0.124177 -0.078480 -0.092642
-0.124071 -0.077782 -0.090192
-0.123981 -0.077363 -0.082289
-0.123898 -0.077071 -0.073330
-0.123853 -0.076417 -0.063303
-0.123861 -0.075306 -0.052848
-0.123497 -0.074587 -0.041605
-0.123110 -0.074421 -0.031380
-0.123040 -0.073611 -0.021497
-0.122728 -0.072795 -0.012550
-0.122478 -0.069847 -0.003823
-0.122003 -0.069609 0.003026
-0.121548 -0.066790 0.010289
-0.120499 -0.064332 0.016368
-0.119840 -0.061968 0.022677
-0.119089 -0.055465 0.028419
-0.117970 -0.052537 0.028965
-0.116105 -0.047387 0.032427
-0.113535 -0.045523 0.033019
-0.111640 -0.041465 0.033316
-0.109406 -0.038304 0.037372
-0.107070 -0.035285 0.038089
-0.103223 -0.032827 0.039326
-0.099614 -0.030388 0.041823
-0.096663 -0.028668 0.047168
-0.125050 -0.083460 -0.125698
-0.125010 -0.081656 -0.115226
-0.124711 -0.081603 -0.110701
-0.124603 -0.081180 -0.108936
-0.124443 -0.079607 -0.105605
-0.124220 -0.079380 -0.099844
-0.124189 -0.078499 -0.094022
-0.124137 -0.076131 -0.091073
-0.124058 -0.075507 -0.089286
-0.123969 -0.074557 -0.085574
-0.123968 -0.074402 -0.081298
-0.123790 -0.073891 -0.072154
-0.123729 -0.073095 -0.062832
-0.123679 -0.072571 -0.051913
-0.123352 -0.072511 -0.040656
-0.123096 -0.071715 -0.030375
-0.122807 -0.070728 -0.019910
-0.122617 -0.069412 -0.010967
-0.122397 -0.068369 -0.003224
-0.121663 -0.066894 0.005041
-0.121111 -0.065165 0.011320
-0.120384 -0.062577 0.018830
-0.119812 -0.060544 0.024389
-0.118920 -0.055129 0.029435
-0.117588 -0.052256 0.033147
-0.115793 -0.047054 0.038856
-0.113308 -0.043890 0.039578
-0.111080 -0.041060 0.043004
-0.108878 -0.036987 0.043798
-0.106649 -0.034330 0.047053
-0.102614 -0.032342 0.048824
-0.098709 -0.029172 0.051347
-0.095989 -0.027073 0.054322
-0.125000 -0.083367 -0.125710
-0.124759 -0.081074 -0.115050
-0.124530 -0.080950 -0.110397
-0.124502 -0.080651 -0.108718
-0.124304 -0.079201 -0.105283
-0.124208 -0.078987 -0.098987
-0.124132 -0.076757 -0.092889
-0.123953 -0.075760 -0.086944
-0.123932 -0.074679 -0.086135
-0.123774 -0.073934 -0.084408
-0.123681 -0.072613 -0.078794
-0.123613 -0.071639 -0.070343
-0.123524 -0.070469 -0.062250
-0.123456 -0.069877 -0.051492
-0.123120 -0.069307 -0.040260
-0.122809 -0.068969 -0.029563
-0.122546 -0.068465 -0.019741
-0.122463 -0.068231 -0.009960
-0.122210 -0.065053 -0.000916
-0.121327 -0.063280 0.006116
-0.120699 -0.061307 0.013378
-0.120452 -0.059138 0.019663
-0.119546 -0.058379 0.025946
-0.118417 -0.052754 0.031875
-0.117364 -0.050467 0.037573
-0.115600 -0.046656 0.041686
-0.112966 -0.041947 0.044935
-0.110766 -0.038842 0.047401
-0.108389 -0.034917 0.051228
-0.105671 -0.033043 0.052926
-0.102527 -0.030986 0.053984
-0.097859 -0.028939 0.058855
-0.095500 -0.026159 0.064050
-0.124759 -0.081556 -0.125229
-0.124781 -0.080681 -0.114988
-0.124418 -0.080541 -0.110251
-0.124348 -0.079433 -0.108541
-0.124264 -0.077443 -0.104644
-0.124036 -0.077461 -0.098738
-0.123973 -0.075841 -0.092133
-0.123779 -0.074286 -0.085858
-0.123739 -0.073405 -0.079342
-0.123610 -0.072317 -0.078914
-0.123574 -0.071429 -0.077134
-0.123451 -0.069501 -0.067412
-0.123297 -0.068956 -0.058102
-0.123110 -0.067491 -0.051117
-0.123063 -0.064859 -0.039927
-0.122698 -0.064582 -0.029230
-0.122277 -0.064457 -0.018827
-0.122144 -0.063994 -0.009275
-0.121813 -0.063489 -0.000182
-0.121052 -0.061050 0.007378
-0.120705 -0.057941 0.013864
-0.120238 -0.055545 0.020997
-0.119206 -0.053821 0.026043
-0.118218 -0.049565 0.032837
-0.116852 -0.047922 0.039134
-0.115520 -0.045067 0.045235
-0.112670 -0.041194 0.048337
-0.110402 -0.037964 0.049699
-0.107917 -0.033838 0.053606
-0.105593 -0.031267 0.058038
-0.102057 -0.030260 0.061429
-0.097335 -0.028714 0.063040
-0.095474 -0.025554 0.073047
-0.124737 -0.080921 -0.125148
-0.124583 -0.080470 -0.114960
-0.124250 -0.078415 -0.110034
-0.124041 -0.077625 -0.108272
-0.123929 -0.077216 -0.104437
-0.123887 -0.076906 -0.098693
-0.123753 -0.075339 -0.091243
-0.123720 -0.073470 -0.084737
-0.123409 -0.073134 -0.078151
-0.123368 -0.071019 -0.072244
-0.123256 -0.070057 -0.071194
-0.123075 -0.068942 -0.066001
-0.123030 -0.066175 -0.056238
-0.122929 -0.065276 -0.046239
-0.122877 -0.064135 -0.039332
-0.122652 -0.061386 -0.029070
-0.122036 -0.059343 -0.018736
-0.121663 -0.058866 -0.008853
-0.121226 -0.058796 0.000119
-0.120909 -0.057860 0.007784
-0.120575 -0.055643 0.015308
-0.119843 -0.052096 0.022287
-0.118361 -0.049376 0.028595
-0.118118 -0.046610 0.033585
-0.116539 -0.045177 0.039460
-0.115166 -0.042409 0.046627
-0.112515 -0.038338 0.049017
-0.110334 -0.037588 0.053883
-0.107573 -0.032985 0.057127
-0.104804 -0.030126 0.060078
-0.101374 -0.028529 0.064106
-0.096792 -0.025624 0.064341
-0.095193 -0.023846 0.076992
-0.124556 -0.080209 -0.124996
-0.124148 -0.079402 -0.114709
-0.124090 -0.077970 -0.109996
-0.123815 -0.077280 -0.108070
-0.123562 -0.075446 -0.104143
-0.123374 -0.074962 -0.098513
-0.123369 -0.073313 -0.090595
-0.123336 -0.071391 -0.084077
-0.123209 -0.070509 -0.077054
-0.123135 -0.069347 -0.071215
-0.123170 -0.067947 -0.065328
-0.122912 -0.066827 -0.058523
-0.122773 -0.064656 -0.055556
-0.122740 -0.062700 -0.045733
-0.122460 -0.062014 -0.034595
-0.122414 -0.061216 -0.027640
-0.121874 -0.059002 -0.018341
-0.121227 -0.057173 -0.008555
-0.121011 -0.054000 0.000695
-0.120162 -0.053613 0.008338
-0.119757 -0.053172 0.016026
-0.119482 -0.049856 0.022816
-0.118275 -0.046043 0.030369
-0.118099 -0.043094 0.037073
-0.116232 -0.042228 0.040509
-0.114675 -0.039161 0.047333
-0.112175 -0.036226 0.050672
-0.110291 -0.034724 0.055703
-0.107565 -0.031644 0.059108
-0.104443 -0.029450 0.063796
-0.100920 -0.027978 0.065107
-0.096327 -0.024722 0.070462
-0.095035 -0.021831 0.079783
-0.124500 -0.079942 -0.124574
-0.123876 -0.077956 -0.114472
-0.123547 -0.077185 -0.109632
-0.123316 -0.074871 -0.107901
-0.123079 -0.074642 -0.103188
-0.123034 -0.073042 -0.097349
-0.122824 -0.072223 -0.089573
-0.122579 -0.070158 -0.083367
-0.122394 -0.067449 -0.076110
-0.122294 -0.067333 -0.069271
-0.122078 -0.067061 -0.062957
-0.122053 -0.064883 -0.056941
-0.121886 -0.062975 -0.051502
-0.121878 -0.061467 -0.043873
-0.121619 -0.060657 -0.034080
-0.121393 -0.058091 -0.024580
-0.121315 -0.057815 -0.015761
-0.120947 -0.056912 -0.007777
-0.120053 -0.053113 0.000919
-0.119410 -0.050307 0.009232
-0.118958 -0.049458 0.016349
-0.118524 -0.048670 0.023702
-0.118188 -0.045473 0.030476
-0.117138 -0.042851 0.037600
-0.115734 -0.041211 0.044242
-0.114017 -0.036276 0.049030
-0.111794 -0.033870 0.051331
-0.110007 -0.031397 0.056106
-0.107459 -0.029566 0.060335
-0.104382 -0.027021 0.064868
-0.100674 -0.024494 0.068922
-0.096079 -0.021151 0.070512
-0.094260 -0.019370 0.081971
-0.124131 -0.079161 -0.124222
-0.123447 -0.076845 -0.114171
-0.123172 -0.076050 -0.109148
-0.122788 -0.073714 -0.106574
-0.122316 -0.071599 -0.102685
-0.121893 -0.071171 -0.095867
-0.121853 -0.070006 -0.088561
-0.121586 -0.068192 -0.082291
-0.121183 -0.067255 -0.075502
-0.120994 -0.066274 -0.068383
-0.120805 -0.064256 -0.062654
-0.120596 -0.062669 -0.054445
-0.120096 -0.060700 -0.049195
-0.119660 -0.060036 -0.042736
-0.119648 -0.058200 -0.033216
-0.119405 -0.055798 -0.024312
-0.119375 -0.054589 -0.015653
-0.119334 -0.054444 -0.007525
-0.119119 -0.052907 0.001104
-0.118602 -0.050045 0.009421
-0.117113 -0.047269 0.017028
-0.116784 -0.044748 0.024240
-0.116510 -0.044077 0.031227
-0.115796 -0.041448 0.038441
-0.115113 -0.039037 0.044508
-0.112941 -0.036206 0.050066
-0.111225 -0.033066 0.054048
-0.109834 -0.031209 0.059287
-0.107456 -0.026307 0.062116
-0.104423 -0.024917 0.066061
-0.100535 -0.022139 0.069864
-0.095816 -0.017796 0.072447
-0.094203 -0.016744 0.082936
-0.123457 -0.078065 -0.123994
-0.123074 -0.075753 -0.113703
-0.123021 -0.072661 -0.108858
-0.122534 -0.071867 -0.105749
-0.121674 -0.070084 -0.100901
-0.121270 -0.068052 -0.094995
-0.120958 -0.066494 -0.087912
-0.120711 -0.065946 -0.081539
-0.120315 -0.064574 -0.074968
-0.119702 -0.063590 -0.066882
-0.119464 -0.062220 -0.059757
-0.119307 -0.061316 -0.054321
-0.119028 -0.059920 -0.047481
-0.118885 -0.058481 -0.039405
-0.118434 -0.057449 -0.032556
-0.117956 -0.054810 -0.023608
-0.117929 -0.053591 -0.015441
-0.117596 -0.051572 -0.007147
-0.117617 -0.051243 0.001240
-0.117373 -0.049824 0.009552
-0.116836 -0.046909 0.017452
-0.115702 -0.043889 0.024723
-0.115103 -0.040537 0.032175
-0.114365 -0.039964 0.038736
-0.113267 -0.038615 0.044659
-0.112631 -0.035833 0.051084
-0.110556 -0.032956 0.054296
-0.109152 -0.028916 0.060959
-0.107157 -0.025906 0.068984
-0.104080 -0.021774 0.069202
-0.100243 -0.020803 0.072516
-0.095554 -0.015889 0.073658
-0.093660 -0.013603 0.085462
-0.123451 -0.076729 -0.123485
-0.122481 -0.074281 -0.111349
-0.121998 -0.071149 -0.107584
-0.121391 -0.067986 -0.103109
-0.121373 -0.067170 -0.096584
-0.120416 -0.066198 -0.092992
-0.120309 -0.065689 -0.086808
-0.119770 -0.063682 -0.080221
-0.119167 -0.063032 -0.073618
-0.119031 -0.060961 -0.066565
-0.118462 -0.059127 -0.059216
-0.118093 -0.057913 -0.051843
-0.117998 -0.057617 -0.045310
-0.117855 -0.055696 -0.037958
-0.117696 -0.055123 -0.032320
-0.117589 -0.054199 -0.023506
-0.117151 -0.051933 -0.015095
-0.116894 -0.050272 -0.007041
-0.116522 -0.048107 0.001323
-0.115964 -0.047677 0.009521
-0.115961 -0.046846 0.017488
-0.115275 -0.043753 0.025132
-0.114769 -0.040063 0.032679
-0.114124 -0.037650 0.039670
-0.112909 -0.036939 0.045471
-0.111423 -0.035296 0.052450
-0.109977 -0.031064 0.056181
-0.108681 -0.027193 0.062608
-0.106767 -0.024235 0.069782
-0.103569 -0.021397 0.073188
-0.099492 -0.018806 0.078327
-0.095261 -0.014708 0.079676
-0.093006 -0.011834 0.086400
-0.122408 -0.073371 -0.122283
-0.121621 -0.070572 -0.105783
-0.120883 -0.070239 -0.101931
-0.119919 -0.066967 -0.098314
-0.119813 -0.065321 -0.093282
-0.119813 -0.063862 -0.087087
-0.118871 -0.061394 -0.086153
-0.117997 -0.060603 -0.078846
-0.117510 -0.059964 -0.073037
-0.117059 -0.058159 -0.066120
-0.117045 -0.057803 -0.058689
-0.117034 -0.057451 -0.051194
-0.116592 -0.054179 -0.045052
-0.116159 -0.053951 -0.038130
-0.116086 -0.053233 -0.030104
-0.115818 -0.051838 -0.022121
-0.115587 -0.049511 -0.015007
-0.115312 -0.048356 -0.006858
-0.115209 -0.046164 0.001403
-0.115203 -0.045806 0.009669
-0.114188 -0.044466 0.017547
-0.113855 -0.043276 0.025195
-0.113187 -0.039788 0.032945
-0.113067 -0.036586 0.040180
-0.112082 -0.034426 0.046610
-0.111117 -0.032420 0.053128
-0.109467 -0.030524 0.057131
-0.108399 -0.026635 0.064343
-0.106192 -0.023649 0.070723
-0.103330 -0.020123 0.075899
-0.099353 -0.016925 0.080668
-0.094646 -0.013944 0.084593
-0.092793 -0.007451 0.091031
-0.122332 -0.073278 -0.114351
-0.120845 -0.068626 -0.095365
-0.119853 -0.065427 -0.094489
-0.118962 -0.062541 -0.088176
-0.118105 -0.061199 -0.087690
-0.117494 -0.060863 -0.084421
-0.117277 -0.059526 -0.080465
-0.116752 -0.059131 -0.077670
-0.116151 -0.056441 -0.072220
-0.115453 -0.055334 -0.065974
-0.115289 -0.054072 -0.058275
-0.114800 -0.052832 -0.051048
-0.114578 -0.051976 -0.044050
-0.114117 -0.050641 -0.037757
-0.114070 -0.050514 -0.028926
-0.113902 -0.050023 -0.022095
-0.113699 -0.049475 -0.014315
-0.113669 -0.048199 -0.006617
-0.113425 -0.045341 0.001841
-0.113011 -0.043734 0.009817
-0.112959 -0.043470 0.017723
-0.112237 -0.041673 0.025206
-0.111764 -0.039575 0.033021
-0.111615 -0.036258 0.040292
-0.111173 -0.033238 0.047006
-0.110366 -0.030346 0.053832
-0.108637 -0.027836 0.058303
-0.108204 -0.026377 0.065386
-0.106129 -0.022266 0.071867
-0.103148 -0.019042 0.076933
-0.099002 -0.016302 0.081308
-0.093843 -0.013165 0.086684
-0.092294 -0.005227 0.094410
-0.121530 -0.072789 -0.108993
-0.119906 -0.064026 -0.090797
-0.119426 -0.062357 -0.086258
-0.118241 -0.060732 -0.083060
-0.117004 -0.059508 -0.079372
-0.116663 -0.057457 -0.076993
-0.115848 -0.056675 -0.073841
-0.115100 -0.053655 -0.072135
-0.114308 -0.052644 -0.071426
-0.114186 -0.052141 -0.063966
-0.113767 -0.051536 -0.058155
-0.112960 -0.050359 -0.050532
-0.112643 -0.048643 -0.042414
-0.112505 -0.047712 -0.035574
-0.112392 -0.047602 -0.028294
-0.111839 -0.047501 -0.020705
-0.111676 -0.046969 -0.013875
-0.111407 -0.045079 -0.005909
-0.111093 -0.043356 0.001951
-0.110888 -0.042742 0.009969
-0.110734 -0.042147 0.017844
-0.110596 -0.040445 0.025287
-0.110580 -0.037525 0.033239
-0.110148 -0.035730 0.040511
-0.109979 -0.032579 0.047356
-0.109745 -0.030155 0.054447
-0.108380 -0.026839 0.058654
-0.106938 -0.023478 0.066260
-0.104968 -0.020140 0.072438
-0.102893 -0.017835 0.076973
-0.098769 -0.014019 0.083443
-0.093305 -0.011636 0.088748
-0.091815 -0.002698 0.094491
-0.119019 -0.067129 -0.101750
-0.117896 -0.062887 -0.080474
-0.117213 -0.058876 -0.079611
-0.116217 -0.057540 -0.079271
-0.115142 -0.057420 -0.074357
-0.114099 -0.053251 -0.072477
-0.114089 -0.051791 -0.069180
-0.113649 -0.051009 -0.068219
-0.112880 -0.050337 -0.067076
-0.112494 -0.049553 -0.062729
-0.111317 -0.048498 -0.056293
-0.111304 -0.047895 -0.050181
-0.110951 -0.047277 -0.041855
-0.110358 -0.045935 -0.035313
-0.109869 -0.043800 -0.027702
-0.109743 -0.043669 -0.020305
-0.109695 -0.043814 -0.013111
-0.109598 -0.042886 -0.005234
-0.109208 -0.041785 0.002033
-0.108970 -0.041499 0.010299
-0.108768 -0.039764 0.018243
-0.108586 -0.038138 0.025651
-0.108221 -0.035390 0.033253
-0.108128 -0.033560 0.040704
-0.108113 -0.032336 0.047393
-0.107636 -0.029667 0.054528
-0.106942 -0.026474 0.058806
-0.106665 -0.022848 0.066633
-0.104228 -0.019091 0.073315
-0.101988 -0.016466 0.078670
-0.098696 -0.013607 0.085143
-0.092917 -0.011484 0.091204
-0.090682 -0.001155 0.096853
-0.118176 -0.061810 -0.093927
-0.117638 -0.060166 -0.075601
-0.116003 -0.056269 -0.074331
-0.113713 -0.054951 -0.071935
-0.113709 -0.053650 -0.069068
-0.112771 -0.052207 -0.067180
-0.111892 -0.050996 -0.065469
-0.110905 -0.049810 -0.064751
-0.110140 -0.048914 -0.063231
-0.109480 -0.047918 -0.061247
-0.109452 -0.046815 -0.056105
-0.108448 -0.044345 -0.049631
-0.108433 -0.043429 -0.040792
-0.107814 -0.042609 -0.034952
-0.107319 -0.042000 -0.027183
-0.107353 -0.041318 -0.019856
-0.106803 -0.040191 -0.012905
-0.106751 -0.040014 -0.005096
-0.106348 -0.039861 0.002508
-0.106015 -0.038502 0.010665
-0.105919 -0.038070 0.018303
-0.105843 -0.036587 0.025872
-0.105810 -0.033141 0.033411
-0.105657 -0.030815 0.040729
-0.105310 -0.029982 0.047647
-0.105247 -0.027703 0.054727
-0.103782 -0.025901 0.058999
-0.103617 -0.022482 0.066607
-0.103343 -0.018134 0.073808
-0.101876 -0.014817 0.080024
-0.098464 -0.011674 0.085741
-0.092570 -0.010411 0.093320
-0.090174 0.000106 0.097288
-0.117124 -0.061149 -0.084478
-0.114828 -0.055874 -0.073396
-0.111401 -0.052536 -0.069294
-0.110580 -0.051188 -0.069215
-0.109940 -0.050941 -0.065388
-0.109289 -0.050419 -0.064449
-0.108887 -0.046956 -0.062470
-0.108696 -0.045800 -0.060859
-0.108521 -0.044348 -0.057893
-0.107978 -0.043429 -0.056522
-0.107248 -0.043349 -0.054613
-0.106507 -0.041846 -0.047496
-0.105853 -0.040944 -0.039631
-0.105280 -0.039904 -0.034021
-0.105175 -0.039815 -0.026678
-0.104700 -0.039189 -0.019383
-0.104294 -0.037132 -0.012485
-0.103883 -0.036023 -0.005004
-0.103616 -0.035738 0.002619
-0.103224 -0.035177 0.010838
-0.102943 -0.035152 0.018340
-0.102674 -0.033405 0.026239
-0.102416 -0.031775 0.033580
-0.102088 -0.029858 0.041054
-0.101845 -0.029071 0.047674
-0.101793 -0.026939 0.054807
-0.101630 -0.024309 0.059086
-0.101092 -0.021202 0.066879
-0.099688 -0.016981 0.074299
-0.099495 -0.013998 0.080405
-0.097913 -0.010440 0.086829
-0.091674 -0.008146 0.095647
-0.089454 0.000732 0.099041
-0.113203 -0.056334 -0.079509
-0.112873 -0.055009 -0.068531
-0.109770 -0.051071 -0.066675
-0.108632 -0.050151 -0.062703
-0.107719 -0.049785 -0.061182
-0.106681 -0.046421 -0.060490
-0.106229 -0.044821 -0.057409
-0.105479 -0.044793 -0.056847
-0.104675 -0.042038 -0.055190
-0.103911 -0.040737 -0.053979
-0.103166 -0.039769 -0.052291
-0.102931 -0.039225 -0.046598
-0.102556 -0.038832 -0.039489
-0.102145 -0.037205 -0.033480
-0.101961 -0.036027 -0.026336
-0.101567 -0.034813 -0.018615
-0.101318 -0.033682 -0.012003
-0.101058 -0.032699 -0.004753
-0.100808 -0.032219 0.002640
-0.100542 -0.032010 0.010953
-0.100554 -0.029649 0.018766
-0.100119 -0.029623 0.026444
-0.100069 -0.029279 0.033904
-0.099748 -0.026037 0.041120
-0.099283 -0.025728 0.048152
-0.099221 -0.024524 0.055180
-0.099014 -0.021857 0.059393
-0.098635 -0.020257 0.067183
-0.098218 -0.016914 0.074443
-0.097206 -0.012805 0.081161
-0.095151 -0.009969 0.087403
-0.090003 -0.006975 0.097173
-0.088921 0.002079 0.100593
-0.108763 -0.053945 -0.070944
-0.107739 -0.051006 -0.064928
-0.105958 -0.048824 -0.062621
-0.105481 -0.047557 -0.058837
-0.104233 -0.046172 -0.056715
-0.103569 -0.044211 -0.055594
-0.102769 -0.043304 -0.055276
-0.101996 -0.041798 -0.054895
-0.101793 -0.041319 -0.050732
-0.101042 -0.038338 -0.049143
-0.100278 -0.036842 -0.048830
-0.099914 -0.035660 -0.045924
-0.099643 -0.035296 -0.039211
-0.099419 -0.034291 -0.033057
-0.098824 -0.033366 -0.026163
-0.098355 -0.032958 -0.018473
