AI/models/basis_lut_2.cube
TITLE "Basis LUT 2"
LUT_3D_SIZE 9
-0.126766 -0.087769 -0.127310
-0.125534 -0.085084 -0.111487
-0.125307 -0.083656 -0.104871
-0.124879 -0.081952 -0.075767
-0.124272 -0.078472 -0.042830
-0.123555 -0.073718 -0.032647
-0.122147 -0.063294 -0.026093
-0.115887 -0.049793 -0.019458
-0.103322 -0.041720 -0.013393
-0.125613 -0.085210 -0.126333
-0.124896 -0.083006 -0.108765
-0.124591 -0.081219 -0.099685
-0.124218 -0.078788 -0.066632
-0.123594 -0.075350 -0.026228
-0.122059 -0.069944 -0.004800
-0.118999 -0.055833 -0.002161
-0.111977 -0.045623 0.006616
-0.099601 -0.031172 0.013570
-0.125050 -0.083460 -0.125698
-0.124443 -0.079607 -0.105605
-0.124058 -0.075507 -0.089286
-0.123729 -0.073095 -0.062832
-0.122807 -0.070728 -0.019910
-0.121111 -0.065165 0.011320
-0.117588 -0.052256 0.033147
-0.108878 -0.036987 0.043798
-0.095989 -0.027073 0.054322
-0.124556 -0.080209 -0.124996
-0.123562 -0.075446 -0.104143
-0.123209 -0.070509 -0.077054
-0.122773 -0.064656 -0.055556
-0.121874 -0.059002 -0.018341
-0.119757 -0.053172 0.016026
-0.116232 -0.042228 0.040509
-0.107565 -0.031644 0.059108
-0.095035 -0.021831 0.079783
-0.123451 -0.076729 -0.123485
-0.121373 -0.067170 -0.096584
-0.119167 -0.063032 -0.073618
-0.117998 -0.057617 -0.045310
-0.117151 -0.051933 -0.015095
-0.115961 -0.046846 0.017488
-0.112909 -0.036939 0.045471
-0.106767 -0.024235 0.069782
-0.093006 -0.011834 0.086400
-0.119019 -0.067129 -0.101750
-0.115142 -0.057420 -0.074357
-0.112880 -0.050337 -0.067076
-0.110951 -0.047277 -0.041855
-0.109695 -0.043814 -0.013111
-0.108768 -0.039764 0.018243
-0.108113 -0.032336 0.047393
-0.104228 -0.019091 0.073315
-0.090682 -0.001155 0.096853
-0.108763 -0.053945 -0.070944
-0.104233 -0.046172 -0.056715
-0.101793 -0.041319 -0.050732
-0.099643 -0.035296 -0.039211
-0.098129 -0.031418 -0.011641
-0.097188 -0.027741 0.018767
-0.096155 -0.024103 0.048452
-0.095346 -0.016189 0.074629
-0.084721 0.003357 0.102973
-0.090334 -0.044738 -0.054033
-0.084238 -0.038333 -0.043135
-0.081660 -0.030273 -0.038686
-0.078343 -0.026271 -0.030903
-0.076416 -0.021198 -0.010300
-0.074857 -0.016995 0.019907
-0.073871 -0.015097 0.049220
-0.073028 -0.006523 0.075767
-0.068152 0.012077 0.110294
-0.072619 -0.037217 -0.041036
-0.065101 -0.028126 -0.032810
-0.061820 -0.023802 -0.026804
-0.058819 -0.017111 -0.022262
-0.056782 -0.012737 -0.007211
-0.054765 -0.008124 0.021642
-0.053451 -0.005214 0.051250
-0.051860 0.001270 0.078130
-0.051120 0.019766 0.113732
-0.116696 -0.086252 -0.126569
-0.112943 -0.081502 -0.108719
-0.111441 -0.077140 -0.100371
-0.109980 -0.069507 -0.068755
-0.109051 -0.065223 -0.035124
-0.108102 -0.060086 -0.025055
-0.106282 -0.053862 -0.019135
-0.102234 -0.043135 -0.014099
-0.089874 -0.034175 -0.005865
-0.110710 -0.083968 -0.125740
-0.108641 -0.079180 -0.105380
-0.107877 -0.073249 -0.096337
-0.106806 -0.063714 -0.065414
-0.105751 -0.057666 -0.024123
-0.105322 -0.053903 0.006756
-0.102817 -0.048018 0.020351
-0.097408 -0.035626 0.023710
-0.084850 -0.025705 0.027855
-0.105591 -0.080481 -0.124737
-0.104173 -0.076638 -0.103976
-0.103461 -0.072399 -0.084448
-0.103421 -0.060311 -0.061460
-0.102932 -0.054230 -0.019263
-0.101704 -0.050881 0.014823
-0.098888 -0.043944 0.042039
-0.095004 -0.030717 0.058541
-0.082418 -0.019830 0.068383
-0.104394 -0.076328 -0.123429
-0.102867 -0.071030 -0.102135
-0.101987 -0.064130 -0.073904
-0.101249 -0.056570 -0.049829
-0.100568 -0.049364 -0.017729
-0.098119 -0.039769 0.017387
-0.094900 -0.030810 0.046069
-0.090460 -0.022557 0.066437
-0.079603 -0.011074 0.085460
-0.102577 -0.072413 -0.120825
-0.100031 -0.060970 -0.091867
-0.098155 -0.056389 -0.071094
-0.096045 -0.048167 -0.041448
-0.094834 -0.042562 -0.012976
-0.093400 -0.035319 0.018203
-0.090675 -0.023817 0.047595
-0.086056 -0.014060 0.071381
-0.075107 -0.001184 0.093627
-0.099435 -0.059049 -0.094752
-0.093221 -0.047778 -0.069043
-0.089089 -0.044701 -0.062049
-0.086704 -0.039232 -0.038517
-0.085348 -0.035704 -0.010887
-0.085024 -0.030023 0.018975
-0.083491 -0.019935 0.048766
-0.081662 -0.008613 0.074985
-0.067856 0.011459 0.101568
-0.078772 -0.046379 -0.066263
-0.074043 -0.038495 -0.051701
-0.071233 -0.033489 -0.044897
-0.068693 -0.030603 -0.036361
-0.067097 -0.023343 -0.009042
-0.066031 -0.020432 0.020214
-0.064775 -0.015092 0.050056
-0.063631 -0.005734 0.076449
-0.053938 0.016404 0.106051
-0.061374 -0.038099 -0.047559
-0.054352 -0.030949 -0.037840
-0.049833 -0.024932 -0.031806
-0.047429 -0.019584 -0.026537
-0.045242 -0.014873 -0.007578
-0.043510 -0.010769 0.021802
-0.041235 -0.006651 0.050962
-0.040643 0.000992 0.077821
-0.036058 0.023456 0.112043
-0.043287 -0.029903 -0.035631
-0.036480 -0.021038 -0.025883
-0.031928 -0.016119 -0.021644
-0.029452 -0.010547 -0.016415
-0.026919 -0.006704 -0.004534
-0.024599 -0.002912 0.023765
-0.023010 0.001885 0.053118
-0.021868 0.009072 0.079766
-0.017843 0.031652 0.115164
-0.095584 -0.084186 -0.126107
-0.093742 -0.079640 -0.107500
-0.091158 -0.073614 -0.095497
-0.089376 -0.064120 -0.066236
-0.087301 -0.058799 -0.034298
-0.085912 -0.055573 -0.022754
-0.083305 -0.050101 -0.015495
-0.081058 -0.037539 -0.008268
-0.076841 -0.027606 0.001218
-0.090130 -0.081265 -0.125242
-0.089163 -0.076266 -0.104914
-0.087434 -0.069640 -0.089898
-0.085402 -0.054957 -0.063724
-0.083648 -0.046863 -0.023296
-0.081847 -0.043624 0.008384
-0.080207 -0.036780 0.023706
-0.077870 -0.029922 0.028084
-0.073824 -0.020941 0.034273
-0.085719 -0.076630 -0.124370
-0.083187 -0.072967 -0.103764
-0.081858 -0.066878 -0.081425
-0.075087 -0.052763 -0.061384
-0.075003 -0.040851 -0.019029
-0.074814 -0.033236 0.015425
-0.074064 -0.027084 0.044426
-0.072375 -0.019448 0.063148
-0.069945 -0.011444 0.074233
-0.075334 -0.071580 -0.122592
-0.073237 -0.065922 -0.101230
-0.070666 -0.062100 -0.073441
-0.069304 -0.048870 -0.047025
-0.069088 -0.035608 -0.017387
-0.068514 -0.028201 0.017671
-0.067688 -0.023168 0.046689
-0.065912 -0.012780 0.068941
-0.060836 -0.002941 0.092200
-0.073285 -0.066919 -0.119238
-0.069631 -0.057756 -0.088274
-0.067170 -0.052522 -0.070103
-0.065604 -0.042436 -0.037993
-0.065001 -0.031951 -0.011456
-0.064374 -0.024015 0.018689
-0.063498 -0.015877 0.048542
-0.061881 -0.004791 0.073524
-0.057696 0.008220 0.096895
-0.069731 -0.051983 -0.092103
-0.067208 -0.042716 -0.065484
-0.065296 -0.038665 -0.060011
-0.063324 -0.034349 -0.036653
-0.062249 -0.027033 -0.008587
-0.061385 -0.022078 0.019761
-0.059852 -0.013213 0.050076
-0.057201 0.000363 0.076404
-0.051572 0.018190 0.104012
-0.065904 -0.041333 -0.061898
-0.060971 -0.033776 -0.048695
-0.058452 -0.027309 -0.043270
-0.055347 -0.022745 -0.034575
-0.052390 -0.017780 -0.007495
-0.050453 -0.014386 0.021693
-0.049334 -0.008574 0.051015
-0.048025 0.002459 0.077998
-0.036453 0.025795 0.109130
-0.051756 -0.031429 -0.043320
-0.042928 -0.024952 -0.033783
-0.039253 -0.019086 -0.027467
-0.036299 -0.014746 -0.022838
-0.033788 -0.009727 -0.005380
-0.030587 -0.004777 0.023209
-0.029521 0.000757 0.052396
-0.028752 0.008743 0.079201
-0.022021 0.031778 0.113579
-0.035468 -0.023403 -0.031683
-0.028643 -0.015647 -0.022913
-0.023444 -0.010717 -0.018716
-0.019146 -0.005992 -0.012043
-0.015363 -0.001761 -0.001405
-0.013250 0.002041 0.025674
-0.012005 0.007214 0.054318
-0.011003 0.016163 0.081459
-0.004028 0.044841 0.116199
-0.065140 -0.079306 -0.125651
-0.060334 -0.071508 -0.106551
-0.057705 -0.064775 -0.088895
-0.055239 -0.056328 -0.063065
-0.053245 -0.047231 -0.032142
-0.051855 -0.040950 -0.020456
-0.049432 -0.037444 -0.013197
-0.047932 -0.031279 -0.006118
-0.044004 -0.023708 0.003988
-0.055745 -0.074859 -0.124584
-0.054933 -0.067988 -0.104314
-0.053605 -0.056026 -0.082284
-0.051568 -0.046140 -0.060996
-0.050310 -0.038925 -0.022066
-0.048775 -0.031298 0.009909
-0.047261 -0.027770 0.024644
-0.044659 -0.023587 0.029715
-0.042126 -0.015177 0.036545
-0.048432 -0.071427 -0.124126
-0.046306 -0.062449 -0.103583
-0.045832 -0.052746 -0.074742
-0.045715 -0.043296 -0.057268
-0.044835 -0.035289 -0.018568
-0.044381 -0.023809 0.015859
-0.043442 -0.017538 0.045323
-0.042117 -0.012857 0.065107
-0.039317 -0.004425 0.077052
-0.046526 -0.066963 -0.121978
-0.045191 -0.060252 -0.100534
-0.044672 -0.049242 -0.073059
-0.043821 -0.041772 -0.043785
-0.039630 -0.030564 -0.017065
-0.039037 -0.020478 0.017957
-0.038328 -0.012976 0.047472
-0.037203 -0.005975 0.070877
-0.034173 0.004038 0.095907
-0.044542 -0.062356 -0.118527
-0.041191 -0.050940 -0.087305
-0.037505 -0.044601 -0.067222
-0.035933 -0.035555 -0.036927
-0.035484 -0.025211 -0.011178
-0.035361 -0.017256 0.018838
-0.034951 -0.008399 0.049151
-0.033984 0.003100 0.075186
-0.029598 0.015282 0.099896
-0.041927 -0.046598 -0.090706
-0.039253 -0.037209 -0.063068
-0.036020 -0.033422 -0.056922
-0.033814 -0.028333 -0.035833
-0.032337 -0.020379 -0.006953
-0.031788 -0.013502 0.020234
-0.030736 -0.003811 0.050895
-0.029797 0.009194 0.077913
-0.020235 0.022451 0.105951
-0.040020 -0.034328 -0.059649
-0.036231 -0.027407 -0.044345
-0.034108 -0.021653 -0.040310
-0.032055 -0.017189 -0.033174
-0.030709 -0.012215 -0.006098
-0.029152 -0.007899 0.022974
-0.027844 -0.000882 0.051968
-0.026267 0.010807 0.079171
-0.014913 0.030826 0.111136
-0.037804 -0.026586 -0.040332
-0.033038 -0.018844 -0.029860
-0.030486 -0.013275 -0.024649
-0.027965 -0.009255 -0.020214
-0.026388 -0.004196 -0.003687
-0.024638 0.002006 0.024585
-0.022915 0.008878 0.053467
-0.020663 0.018249 0.080194
-0.003480 0.043922 0.114734
-0.024685 -0.017232 -0.028032
-0.018748 -0.011317 -0.019227
-0.015639 -0.005363 -0.013700
-0.011549 -0.001259 -0.008701
-0.009091 0.003199 0.000456
-0.007501 0.010096 0.027019
-0.006180 0.017165 0.055949
-0.004463 0.023931 0.083303
0.004584 0.053572 0.116855
-0.038120 -0.073466 -0.125240
-0.032432 -0.060259 -0.104659
-0.030654 -0.052700 -0.083910
-0.027540 -0.044309 -0.061966
-0.025215 -0.038201 -0.031043
-0.022064 -0.032507 -0.018451
-0.018065 -0.026866 -0.011474
-0.014914 -0.024548 -0.004014
-0.011828 -0.014943 0.005679
-0.027900 -0.066596 -0.123983
-0.024664 -0.054957 -0.102463
-0.022636 -0.047007 -0.078932
-0.021235 -0.037656 -0.056818
-0.018105 -0.029743 -0.020224
-0.016336 -0.024073 0.012180
-0.014693 -0.017950 0.027027
-0.011065 -0.012822 0.031176
-0.007410 -0.005677 0.038195
-0.016489 -0.062971 -0.123169
-0.015470 -0.049589 -0.100469
-0.014657 -0.038917 -0.074015
-0.013844 -0.035219 -0.054051
-0.012201 -0.024277 -0.017550
-0.010702 -0.018962 0.017080
-0.009635 -0.011041 0.046103
-0.008021 -0.005948 0.065674
-0.005378 0.002472 0.077891
-0.013492 -0.054262 -0.120778
-0.010648 -0.043304 -0.097349
-0.010250 -0.034564 -0.071810
-0.009287 -0.029439 -0.038854
-0.009063 -0.020941 -0.015384
-0.008477 -0.015915 0.018239
-0.007244 -0.007833 0.047778
-0.005938 0.000045 0.072125
-0.003967 0.008254 0.097276
-0.011952 -0.050681 -0.118208
-0.009969 -0.038065 -0.085460
-0.009151 -0.032059 -0.066443
-0.008498 -0.026021 -0.036932
-0.008525 -0.019272 -0.011312
-0.005733 -0.007089 0.019273
-0.004954 -0.001632 0.049895
-0.003472 0.007836 0.075797
-0.000589 0.018730 0.101650
-0.009871 -0.040353 -0.089526
-0.008452 -0.031080 -0.061115
-0.007156 -0.025880 -0.055514
-0.006385 -0.022184 -0.034505
-0.004840 -0.013852 -0.006201
-0.003749 -0.003726 0.020472
-0.002900 0.006055 0.051363
-0.001668 0.015294 0.078859
0.003846 0.029962 0.106577
-0.008552 -0.029064 -0.058008
-0.007045 -0.021643 -0.042472
-0.005831 -0.016625 -0.038268
-0.004603 -0.012522 -0.031581
-0.002889 -0.005055 -0.004640
-0.001716 0.001777 0.024240
-0.000095 0.009806 0.052544
0.000843 0.020642 0.080157
0.006366 0.036371 0.112636
-0.007265 -0.020327 -0.037386
-0.005013 -0.014434 -0.026781
-0.003699 -0.008784 -0.023083
-0.001996 -0.003859 -0.018136
-0.000751 0.001884 -0.001818
0.000988 0.008519 0.025845
0.002535 0.017350 0.055126
0.003979 0.025707 0.081331
0.010269 0.051972 0.115831
-0.004940 -0.012972 -0.024073
-0.002020 -0.006032 -0.017372
-0.000313 -0.000844 -0.011498
0.000822 0.004479 -0.006360
0.002721 0.009635 0.002079
0.005055 0.017691 0.028899
0.008153 0.026736 0.057322
0.012315 0.037303 0.085514
0.017969 0.064128 0.117473
-0.024261 -0.062233 -0.124857
-0.017575 -0.053254 -0.103121
-0.015453 -0.044000 -0.080795
-0.013599 -0.037397 -0.057535
-0.010991 -0.031299 -0.030604
-0.007948 -0.027183 -0.017228
-0.003554 -0.022495 -0.009132
0.002529 -0.017656 -0.001492
0.008723 -0.012343 0.008761
-0.015422 -0.054164 -0.123386
-0.011400 -0.044718 -0.100165
-0.006544 -0.037899 -0.076372
-0.002722 -0.031786 -0.053956
-0.000345 -0.024066 -0.018969
0.002956 -0.018376 0.013298
0.006919 -0.013349 0.028126
0.009768 -0.007764 0.032140
0.014463 -0.001988 0.039957
0.005136 -0.047928 -0.121947
0.007619 -0.037461 -0.097975
0.009162 -0.030925 -0.071612
0.010474 -0.026284 -0.050297
0.011224 -0.018703 -0.016157
0.012502 -0.010931 0.018084
0.013748 -0.005117 0.047060
0.016392 0.000671 0.066891
0.019832 0.007907 0.078997
0.013943 -0.042061 -0.120197
0.016288 -0.033043 -0.094967
0.017123 -0.025293 -0.069300
0.017643 -0.021752 -0.038062
0.018319 -0.016815 -0.013747
0.019000 -0.006616 0.019221
0.019995 -0.001520 0.048943
0.021783 0.007046 0.073204
0.024464 0.015291 0.097690
0.016069 -0.035358 -0.117084
0.018175 -0.028649 -0.084309
0.021263 -0.021207 -0.065681
0.021897 -0.012988 -0.036292
0.022222 -0.008786 -0.008829
0.022879 -0.001231 0.019999
0.023289 0.003065 0.050698
0.024868 0.012018 0.076735
0.027397 0.022332 0.102988
0.017396 -0.030046 -0.088815
0.019694 -0.024391 -0.059275
0.021685 -0.017696 -0.055039
0.022659 -0.008635 -0.033221
0.023311 -0.003303 -0.005257
0.023335 0.006904 0.020587
0.024911 0.015112 0.051983
0.026577 0.021149 0.079478
0.030514 0.033034 0.107949
0.019289 -0.022567 -0.057371
0.021397 -0.015983 -0.040777
0.022767 -0.010729 -0.037018
0.024017 -0.004152 -0.029971
0.024885 0.003013 -0.003672
0.025910 0.012100 0.025396
0.027705 0.021103 0.053102
0.028903 0.028804 0.080896
0.034365 0.047361 0.114349
0.020714 -0.015048 -0.035642
0.022668 -0.008670 -0.024045
0.024468 -0.003540 -0.020263
0.025623 0.002246 -0.016560
0.027568 0.009702 -0.000475
0.028802 0.017732 0.027702
0.030776 0.028196 0.056392
0.032743 0.037917 0.081973
0.037816 0.058668 0.116937
0.022840 -0.007404 -0.022366
0.025029 -0.001430 -0.014012
0.026334 0.004713 -0.009126
0.028823 0.009863 -0.004608
0.030672 0.017607 0.004304
0.033318 0.025270 0.031517
0.036330 0.037373 0.058695
0.040239 0.048358 0.086937
0.045619 0.073022 0.119060
-0.016867 -0.052115 -0.124190
-0.011077 -0.044996 -0.099572
-0.007649 -0.037395 -0.077176
-0.006615 -0.031309 -0.055167
-0.002940 -0.027480 -0.025685
0.000837 -0.023094 -0.016114
0.005812 -0.019018 -0.006740
0.009043 -0.014607 0.003003
0.014462 -0.009598 0.014738
-0.009702 -0.046518 -0.122356
-0.004098 -0.036059 -0.090554
0.000493 -0.030390 -0.071626
0.005615 -0.025702 -0.050106
0.010211 -0.018457 -0.016466
0.011973 -0.013719 0.015564
0.014419 -0.008892 0.029147
0.019774 -0.004356 0.035014
0.026791 0.001085 0.042656
0.011963 -0.037531 -0.120081
0.013344 -0.029493 -0.086946
0.015442 -0.024818 -0.068980
0.018099 -0.018475 -0.045543
0.020286 -0.012980 -0.013505
0.021792 -0.006334 0.019172
0.024577 -0.001205 0.048357
0.026607 0.003825 0.068190
0.032979 0.010931 0.079877
0.024149 -0.031553 -0.117985
0.025028 -0.024770 -0.085920
0.027375 -0.018200 -0.067299
0.029237 -0.013638 -0.036921
0.030408 -0.007796 -0.010463
0.032148 0.000493 0.020246
0.033706 0.005062 0.049988
0.036862 0.014146 0.074134
0.041659 0.022013 0.099096
0.034591 -0.027196 -0.115248
0.037689 -0.021511 -0.080839
0.044622 -0.012950 -0.063934
0.049421 -0.003116 -0.035319
0.050238 0.001758 -0.006874
0.050937 0.004782 0.021709
0.051626 0.011268 0.051396
0.052657 0.018120 0.077711
0.054017 0.029819 0.104018
0.038513 -0.024113 -0.088053
0.041029 -0.016652 -0.058183
0.046047 -0.010480 -0.053312
0.050171 -0.000929 -0.032223
0.052584 0.009181 -0.004171
0.052856 0.013931 0.023780
0.053178 0.019848 0.052724
0.054196 0.026687 0.080110
0.057120 0.037839 0.108892
0.040371 -0.017180 -0.056245
0.044328 -0.010693 -0.040103
0.048278 -0.004963 -0.035790
0.051375 0.003362 -0.028599
0.053010 0.011309 -0.002177
0.053604 0.021809 0.026285
0.054376 0.032806 0.053826
0.056246 0.038663 0.081389
0.058877 0.050262 0.114774
0.042302 -0.009893 -0.034297
0.046395 -0.002816 -0.022775
0.050938 0.002924 -0.018910
0.052869 0.010922 -0.015587
0.054229 0.017239 0.001395
0.054949 0.026590 0.029681
0.056542 0.039404 0.057290
0.058244 0.049881 0.082571
0.061231 0.067387 0.118094
0.046662 -0.002601 -0.020040
0.050492 0.005235 -0.011901
0.053694 0.012123 -0.006325
0.054675 0.016988 -0.002507
0.056382 0.024361 0.007119
0.057755 0.031486 0.033997
0.060830 0.046973 0.061661
0.063594 0.064425 0.088833
0.067225 0.083134 0.120374
-0.009192 -0.045380 -0.123403
-0.004730 -0.036772 -0.088867
-0.001721 -0.030132 -0.072286
0.000176 -0.025973 -0.050674
0.006867 -0.022150 -0.022934
0.010612 -0.019249 -0.013512
0.013939 -0.015991 -0.005290
0.021563 -0.012466 0.008972
0.026253 -0.006862 0.023987
-0.002654 -0.037474 -0.120624
0.001134 -0.030299 -0.073515
0.006352 -0.022501 -0.063593
0.011738 -0.019258 -0.044455
0.016954 -0.013875 -0.013262
0.022717 -0.009225 0.016844
0.024963 -0.004682 0.031263
0.028513 -0.001829 0.037602
0.033802 0.005194 0.047081
0.016287 -0.029554 -0.118346
0.017955 -0.023592 -0.068202
0.019887 -0.018429 -0.059296
0.022707 -0.012934 -0.038956
0.024938 -0.007421 -0.010458
0.029902 -0.001156 0.020166
0.032552 0.002936 0.049770
0.036623 0.007567 0.070281
0.043515 0.013618 0.083184
0.029475 -0.021999 -0.115283
0.030494 -0.017446 -0.064705
0.032222 -0.012038 -0.057873
0.034388 -0.006306 -0.035229
0.036987 0.000334 -0.008257
0.039255 0.004785 0.022206
0.042427 0.011096 0.051543
0.045865 0.018397 0.076374
0.052000 0.030153 0.100702
0.042677 -0.019742 -0.111943
0.047742 -0.013176 -0.062881
0.052211 -0.007924 -0.055983
0.055248 0.001393 -0.033380
0.056501 0.006048 -0.005611
0.057943 0.012066 0.023712
0.060332 0.018709 0.052562
0.062171 0.025118 0.079008
0.066689 0.037849 0.105376
0.051522 -0.015502 -0.087252
0.054360 -0.009600 -0.056558
0.058311 -0.003570 -0.049929
0.068963 0.005950 -0.030606
0.078638 0.014541 -0.003377
0.079539 0.026800 0.025719
0.080620 0.028826 0.054453
0.081414 0.033238 0.081262
0.082716 0.043946 0.110536
0.053408 -0.008570 -0.055436
0.057192 -0.004320 -0.039061
0.059658 0.001633 -0.034939
0.071039 0.010202 -0.026371
0.080326 0.022007 -0.000857
0.081674 0.032992 0.028614
0.082066 0.040322 0.056475
0.082989 0.046962 0.082277
0.086440 0.056073 0.116085
0.055960 -0.003323 -0.032919
0.059624 0.002774 -0.020312
0.064330 0.010929 -0.017241
0.073579 0.020017 -0.014181
0.081026 0.030727 0.002758
0.082285 0.038605 0.031270
0.083319 0.054184 0.059459
0.084030 0.058444 0.083226
0.091110 0.084703 0.119074
0.060736 0.004305 -0.018651
0.064240 0.011439 -0.008578
0.070038 0.017510 -0.004564
0.081265 0.026850 -0.000131
0.083202 0.035591 0.009985
0.085242 0.047829 0.038011
0.089103 0.062785 0.063980
0.093048 0.088137 0.092937
0.095170 0.099868 0.122193
0.001635 -0.035222 -0.121798
0.004897 -0.030074 -0.075445
0.008772 -0.023663 -0.062149
0.012003 -0.019488 -0.044531
0.019483 -0.017298 -0.016366
0.029855 -0.013912 -0.009027
0.033413 -0.010917 -0.002047
0.037362 -0.007114 0.013774
0.045257 -0.002495 0.047785
0.005797 -0.031035 -0.117906
0.010884 -0.021707 -0.055312
0.014124 -0.016296 -0.048098
0.019401 -0.012724 -0.036822
0.027538 -0.008280 -0.009376
0.035685 -0.003437 0.019587
0.042839 0.002185 0.036475
0.049032 0.004648 0.043717
0.064411 0.012070 0.054859
0.019214 -0.023192 -0.115084
0.023470 -0.015605 -0.051455
0.024570 -0.010593 -0.044075
0.028331 -0.006739 -0.033473
0.034404 -0.001392 -0.007057
0.039838 0.003474 0.023857
0.049594 0.009071 0.051733
0.056591 0.013031 0.074318
0.076300 0.018100 0.086900
0.032062 -0.014711 -0.112526
0.034331 -0.010547 -0.049357
0.037127 -0.005052 -0.041355
0.040502 0.000251 -0.032066
0.044690 0.006575 -0.005172
0.050810 0.012577 0.025534
0.056448 0.018103 0.054311
0.064084 0.026377 0.078944
0.079121 0.042688 0.105266
0.050837 -0.012275 -0.108448
0.054985 -0.003871 -0.046597
0.057041 0.002980 -0.038841
0.061698 0.009520 -0.029676
0.065874 0.014731 -0.002987
0.070195 0.020720 0.026478
0.072777 0.026768 0.055030
0.076287 0.033343 0.081962
0.083474 0.051108 0.108339
0.060761 -0.003474 -0.078695
0.066912 0.002605 -0.044862
0.071047 0.009689 -0.036175
0.084886 0.017228 -0.023569
0.088383 0.026386 -0.000023
0.089643 0.031593 0.030402
0.091890 0.037208 0.057029
0.093705 0.046025 0.084239
0.098081 0.055579 0.114604
0.068492 0.003567 -0.053576
0.071822 0.009398 -0.036530
0.074823 0.015086 -0.031953
0.089597 0.025181 -0.016209
0.104651 0.035480 0.005090
0.109590 0.042162 0.032090
0.111212 0.049039 0.059608
0.112221 0.057714 0.086342
0.114235 0.067429 0.118025
0.069920 0.017074 -0.031903
0.073331 0.019427 -0.018910
0.076807 0.023301 -0.014419
0.090793 0.033860 -0.010062
0.107216 0.046855 0.008260
0.116244 0.054649 0.035595
0.119363 0.070273 0.063460
0.120159 0.086603 0.091137
0.122070 0.099879 0.120798
0.072970 0.025443 -0.017580
0.078670 0.035316 -0.006365
0.081063 0.040335 -0.001745
0.092478 0.045812 0.005150
0.110799 0.058684 0.017616
0.118241 0.072335 0.040075
0.122401 0.085387 0.067739
0.124334 0.102337 0.095227
0.125296 0.121696 0.122958
