AI/models/basis_lut_2.cube
TITLE "Basis LUT 2"
LUT_3D_SIZE 5
-0.126766 -0.087769 -0.127310
-0.125307 -0.083656 -0.104871
-0.124272 -0.078472 -0.042830
-0.122147 -0.063294 -0.026093
-0.103322 -0.041720 -0.013393
-0.125050 -0.083460 -0.125698
-0.124058 -0.075507 -0.089286
-0.122807 -0.070728 -0.019910
-0.117588 -0.052256 0.033147
-0.095989 -0.027073 0.054322
-0.123451 -0.076729 -0.123485
-0.119167 -0.063032 -0.073618
-0.117151 -0.051933 -0.015095
-0.112909 -0.036939 0.045471
-0.093006 -0.011834 0.086400
-0.108763 -0.053945 -0.070944
-0.101793 -0.041319 -0.050732
-0.098129 -0.031418 -0.011641
-0.096155 -0.024103 0.048452
-0.084721 0.003357 0.102973
-0.072619 -0.037217 -0.041036
-0.061820 -0.023802 -0.026804
-0.056782 -0.012737 -0.007211
-0.053451 -0.005214 0.051250
-0.051120 0.019766 0.113732
-0.095584 -0.084186 -0.126107
-0.091158 -0.073614 -0.095497
-0.087301 -0.058799 -0.034298
-0.083305 -0.050101 -0.015495
-0.076841 -0.027606 0.001218
-0.085719 -0.076630 -0.124370
-0.081858 -0.066878 -0.081425
-0.075003 -0.040851 -0.019029
-0.074064 -0.027084 0.044426
-0.069945 -0.011444 0.074233
-0.073285 -0.066919 -0.119238
-0.067170 -0.052522 -0.070103
-0.065001 -0.031951 -0.011456
-0.063498 -0.015877 0.048542
-0.057696 0.008220 0.096895
-0.065904 -0.041333 -0.061898
-0.058452 -0.027309 -0.043270
-0.052390 -0.017780 -0.007495
-0.049334 -0.008574 0.051015
-0.036453 0.025795 0.109130
-0.035468 -0.023403 -0.031683
-0.023444 -0.010717 -0.018716
-0.015363 -0.001761 -0.001405
-0.012005 0.007214 0.054318
-0.004028 0.044841 0.116199
-0.038120 -0.073466 -0.125240
-0.030654 -0.052700 -0.083910
-0.025215 -0.038201 -0.031043
-0.018065 -0.026866 -0.011474
-0.011828 -0.014943 0.005679
-0.016489 -0.062971 -0.123169
-0.014657 -0.038917 -0.074015
-0.012201 -0.024277 -0.017550
-0.009635 -0.011041 0.046103
-0.005378 0.002472 0.077891
-0.011952 -0.050681 -0.118208
-0.009151 -0.032059 -0.066443
-0.008525 -0.019272 -0.011312
-0.004954 -0.001632 0.049895
-0.000589 0.018730 0.101650
-0.008552 -0.029064 -0.058008
-0.005831 -0.016625 -0.038268
-0.002889 -0.005055 -0.004640
-0.000095 0.009806 0.052544
0.006366 0.036371 0.112636
-0.004940 -0.012972 -0.024073
-0.000313 -0.000844 -0.011498
0.002721 0.009635 0.002079
0.008153 0.026736 0.057322
0.017969 0.064128 0.117473
-0.016867 -0.052115 -0.124190
-0.007649 -0.037395 -0.077176
-0.002940 -0.027480 -0.025685
0.005812 -0.019018 -0.006740
0.014462 -0.009598 0.014738
0.011963 -0.037531 -0.120081
0.015442 -0.024818 -0.068980
0.020286 -0.012980 -0.013505
0.024577 -0.001205 0.048357
0.032979 0.010931 0.079877
0.034591 -0.027196 -0.115248
0.044622 -0.012950 -0.063934
0.050238 0.001758 -0.006874
0.051626 0.011268 0.051396
0.054017 0.029819 0.104018
0.040371 -0.017180 -0.056245
0.048278 -0.004963 -0.035790
0.053010 0.011309 -0.002177
0.054376 0.032806 0.053826
0.058877 0.050262 0.114774
0.046662 -0.002601 -0.020040
0.053694 0.012123 -0.006325
0.056382 0.024361 0.007119
0.060830 0.046973 0.061661
0.067225 0.083134 0.120374
0.001635 -0.035222 -0.121798
0.008772 -0.023663 -0.062149
0.019483 -0.017298 -0.016366
0.033413 -0.010917 -0.002047
0.045257 -0.002495 0.047785
0.019214 -0.023192 -0.115084
0.024570 -0.010593 -0.044075
0.034404 -0.001392 -0.007057
0.049594 0.009071 0.051733
0.076300 0.018100 0.086900
0.050837 -0.012275 -0.108448
0.057041 0.002980 -0.038841
0.065874 0.014731 -0.002987
0.072777 0.026768 0.055030
0.083474 0.051108 0.108339
0.068492 0.003567 -0.053576
0.074823 0.015086 -0.031953
0.104651 0.035480 0.005090
0.111212 0.049039 0.059608
0.114235 0.067429 0.118025
0.072970 0.025443 -0.017580
0.081063 0.040335 -0.001745
0.110799 0.058684 0.017616
0.122401 0.085387 0.067739
0.125296 0.121696 0.122958
