AI/models/basis_lut_0.cube
TITLE "Basis LUT 0 (identity)"
LUT_3D_SIZE 9
-0.234557 -0.161611 -0.233863
-0.038534 -0.156260 -0.188607
0.016562 -0.106111 -0.108239
0.019609 -0.048664 0.092082
0.022013 -0.029624 0.302163
0.024739 -0.018926 0.486830
0.028252 -0.012506 0.650336
0.032412 -0.005367 0.790795
0.045907 0.003550 0.912198
-0.174486 -0.000837 -0.164846
-0.035620 0.031004 -0.135375
0.047351 0.032583 -0.098554
0.048877 0.034776 0.095301
0.049785 0.049588 0.305743
0.051350 0.069625 0.493532
0.053720 0.085308 0.654902
0.055937 0.105355 0.799048
0.061719 0.112936 0.917705
-0.056405 0.196734 -0.047522
-0.028002 0.204999 -0.039632
0.048957 0.210489 -0.035573
0.056933 0.226481 0.096225
0.059306 0.235019 0.307341
0.060820 0.239500 0.495472
0.063433 0.243474 0.658798
0.066515 0.246236 0.804022
0.072027 0.251475 0.920700
-0.013930 0.322944 -0.022287
0.018553 0.329083 0.069239
0.050089 0.337396 0.084059
0.059081 0.343415 0.130961
0.064950 0.347878 0.309092
0.069143 0.356034 0.496413
0.081675 0.364078 0.659974
0.086390 0.369678 0.805782
0.114314 0.379744 0.923080
-0.001717 0.449897 -0.005400
0.019414 0.458134 0.110961
0.051497 0.464647 0.196524
0.060198 0.468628 0.202588
0.065986 0.472768 0.330074
0.073066 0.477322 0.497833
0.090942 0.481789 0.661558
0.121140 0.486501 0.806953
0.164629 0.493226 0.924409
0.001803 0.570504 0.002741
0.020528 0.581712 0.119839
0.052601 0.587633 0.230692
0.061294 0.590597 0.303878
0.067884 0.595121 0.348758
0.074299 0.599902 0.507159
0.093870 0.605189 0.663857
0.129196 0.607646 0.807806
0.218101 0.613676 0.925258
0.003941 0.697560 0.004532
0.023100 0.706056 0.123249
0.054734 0.710306 0.243619
0.063049 0.715425 0.360008
0.069923 0.719385 0.435106
0.077551 0.722434 0.531048
0.094841 0.726624 0.673096
0.132165 0.730502 0.810456
0.263282 0.736390 0.925746
0.008876 0.821888 0.008080
0.029546 0.829899 0.125236
0.058178 0.837089 0.248350
0.065380 0.840346 0.369038
0.072777 0.844269 0.480236
0.079593 0.849159 0.591853
0.097621 0.851737 0.686372
0.135792 0.854363 0.817934
0.337534 0.858376 0.926535
0.018245 0.939887 0.019852
0.038936 0.948171 0.133237
0.063489 0.954301 0.251383
0.072733 0.958352 0.373696
0.079892 0.961923 0.495404
0.085850 0.964684 0.613846
0.102797 0.967360 0.715921
0.139077 0.969827 0.828383
0.407278 0.973712 0.928479
-0.179985 -0.113859 -0.009139
-0.032811 -0.091797 -0.006839
0.119652 -0.082531 -0.003799
0.138370 -0.037547 0.095525
0.146721 -0.019346 0.305358
0.154180 -0.009955 0.492965
0.155714 -0.004207 0.656294
0.158307 0.000431 0.801047
0.167813 0.007118 0.923882
-0.153095 0.011478 -0.005726
-0.007920 0.032996 -0.003746
0.180360 0.033660 -0.000921
0.197982 0.036440 0.097184
0.198703 0.056724 0.308205
0.199197 0.077623 0.496754
0.199909 0.093183 0.659301
0.201856 0.108616 0.806005
0.205190 0.123173 0.929702
-0.050717 0.208337 -0.004929
-0.006806 0.224508 -0.003129
0.188934 0.232677 0.002803
0.199184 0.234576 0.097605
0.199697 0.240248 0.309355
0.200573 0.243665 0.498512
0.201909 0.247384 0.661967
0.204108 0.251035 0.808279
0.251112 0.256285 0.933785
0.019391 0.334967 0.002176
0.068849 0.343499 0.086280
0.190018 0.358539 0.088801
0.199677 0.365904 0.138460
0.200588 0.371941 0.311033
0.201729 0.373336 0.500324
0.203216 0.379580 0.664194
0.205877 0.385216 0.811720
0.296814 0.389302 0.936473
0.066397 0.457756 0.018157
0.107392 0.466357 0.122549
0.191463 0.471791 0.209455
0.200081 0.475253 0.225892
0.201235 0.480934 0.335627
0.202800 0.486520 0.502224
0.205390 0.488427 0.667010
0.209275 0.493725 0.814194
0.315654 0.500493 0.939162
0.092532 0.579700 0.026545
0.122896 0.588896 0.125663
0.192793 0.593950 0.244649
0.201017 0.598094 0.325469
0.202232 0.601748 0.407907
0.203850 0.605858 0.519716
0.207268 0.609287 0.670061
0.216833 0.612420 0.815791
0.341912 0.618142 0.942174
0.119292 0.706144 0.028709
0.126604 0.711584 0.127535
0.195074 0.716519 0.249830
0.201475 0.721213 0.368989
0.203111 0.723921 0.469302
0.205703 0.728350 0.560885
0.209124 0.731344 0.682620
0.221155 0.735591 0.818743
0.421684 0.740475 0.944278
0.124515 0.831590 0.031935
0.130331 0.837739 0.134029
0.197389 0.842775 0.252072
0.203646 0.847426 0.373921
0.205262 0.849571 0.494765
0.207529 0.853897 0.608541
0.211676 0.855856 0.708970
0.225595 0.859531 0.827178
0.488261 0.864058 0.946903
0.131220 0.949066 0.045955
0.138773 0.954766 0.141320
0.200662 0.957998 0.260481
0.205916 0.963591 0.380569
0.209854 0.966091 0.499760
0.212053 0.968331 0.623048
0.217263 0.971976 0.734518
0.231139 0.973494 0.846951
0.599730 0.977040 0.949884
-0.064147 -0.105071 0.037959
-0.008375 -0.045782 0.135565
0.208486 -0.026120 0.189908
0.230751 -0.016686 0.230247
0.241925 -0.009569 0.337117
0.250558 -0.004380 0.497181
0.255353 0.000764 0.660262
0.266536 0.005903 0.804283
0.280421 0.011864 0.929250
-0.050720 0.035448 0.046194
-0.006764 0.037343 0.149378
0.218011 0.039021 0.198498
0.298563 0.058371 0.232837
0.318850 0.075941 0.342021
0.322537 0.093945 0.501340
0.325712 0.103518 0.663441
0.331337 0.123557 0.808856
0.382997 0.132261 0.933237
-0.019840 0.218846 0.047242
-0.004808 0.231479 0.175916
0.222374 0.234608 0.217459
0.332064 0.239198 0.235001
0.334689 0.242476 0.343828
0.335818 0.247564 0.502482
0.336888 0.251530 0.665353
0.338024 0.255881 0.812086
0.394332 0.260845 0.937010
0.040757 0.342391 0.048281
0.080056 0.356873 0.176638
0.227418 0.378702 0.218498
0.333727 0.383439 0.236400
0.336154 0.384848 0.344179
0.336823 0.387786 0.503327
0.337917 0.391653 0.667827
0.340433 0.393461 0.814399
0.408761 0.397264 0.940714
0.150353 0.466681 0.049529
0.180251 0.473503 0.177132
0.242133 0.477467 0.226426
0.334173 0.483483 0.239828
0.336637 0.487224 0.344632
0.337784 0.490373 0.504862
0.339391 0.493582 0.670135
0.341570 0.498192 0.816515
0.423116 0.505091 0.942713
0.226149 0.588202 0.050935
0.235054 0.594483 0.177962
0.254481 0.598989 0.253854
0.335028 0.602324 0.353568
0.336954 0.605203 0.411933
0.338821 0.609095 0.522713
0.340979 0.612058 0.672738
0.344038 0.616401 0.819005
0.441438 0.622301 0.944732
0.236049 0.710016 0.052723
0.247018 0.716102 0.179026
0.264580 0.721889 0.262846
0.335867 0.725456 0.375864
0.338307 0.728174 0.483360
0.340150 0.732032 0.567364
0.342677 0.734710 0.687681
0.346088 0.738652 0.822719
0.468488 0.743041 0.947488
0.243790 0.836180 0.054658
0.254636 0.843130 0.180267
0.276665 0.847193 0.269214
0.336980 0.850807 0.381956
0.339921 0.854583 0.497320
0.342297 0.856472 0.616702
0.345632 0.859562 0.715339
0.349313 0.862303 0.835446
0.555266 0.867015 0.950177
0.255656 0.953005 0.057761
0.265435 0.958969 0.182576
0.289535 0.963087 0.286566
0.339314 0.966248 0.390242
0.342244 0.969048 0.507670
0.344664 0.971681 0.624391
0.349282 0.974096 0.745329
0.356119 0.975660 0.852228
0.622830 0.978345 0.955713
0.003348 -0.089430 0.039935
0.149304 -0.034089 0.141625
0.222907 -0.018014 0.234492
0.344413 -0.010115 0.334334
0.360639 -0.005572 0.408887
0.371146 0.000041 0.514767
0.375733 0.004827 0.664754
0.377173 0.010194 0.809664
0.391626 0.017732 0.933364
0.147285 0.052475 0.048048
0.151452 0.064138 0.152891
0.227807 0.071027 0.257364
0.352435 0.079071 0.342661
0.418494 0.087562 0.417868
0.425204 0.110458 0.520350
0.428280 0.127138 0.667353
0.432897 0.135172 0.814207
0.467640 0.142970 0.937154
0.149650 0.228896 0.051005
0.152684 0.233546 0.177715
0.231182 0.237702 0.286766
0.392091 0.241309 0.372295
0.452502 0.245863 0.424395
0.462758 0.250489 0.524679
0.464386 0.254254 0.669488
0.467088 0.258953 0.816132
0.535381 0.265403 0.940074
0.194087 0.348770 0.052206
0.221057 0.365979 0.178158
0.255414 0.380067 0.322146
0.395087 0.390570 0.390433
0.456022 0.391983 0.425710
0.466116 0.393317 0.527040
0.468336 0.394878 0.671177
0.471357 0.397310 0.817503
0.552681 0.401324 0.942409
0.277406 0.470064 0.053183
0.307623 0.478446 0.178826
0.312370 0.483216 0.322471
0.395983 0.489362 0.390959
0.458920 0.492577 0.426231
0.468104 0.495548 0.528933
0.470059 0.498934 0.673688
0.473222 0.504875 0.820037
0.562948 0.509628 0.945247
0.322475 0.591884 0.054043
0.339342 0.597569 0.179612
0.351046 0.602088 0.322853
0.400171 0.604942 0.394080
0.460116 0.607957 0.427432
0.469236 0.610786 0.531438
0.471868 0.613871 0.675357
0.476828 0.617577 0.821526
0.570369 0.625034 0.947493
0.351271 0.715358 0.055966
0.358729 0.721406 0.181001
0.368512 0.725711 0.324073
0.404336 0.728290 0.399941
0.461814 0.731303 0.494049
0.470242 0.734105 0.571107
0.473911 0.737387 0.689407
0.479006 0.740694 0.824340
0.585597 0.745595 0.950517
0.361066 0.841850 0.059226
0.370658 0.846116 0.182407
0.377072 0.851252 0.325114
0.411220 0.854868 0.403265
0.466069 0.857924 0.508702
0.472524 0.859288 0.620814
0.475778 0.862779 0.718806
0.482196 0.865618 0.841340
0.610611 0.867960 0.953397
0.369931 0.957970 0.062399
0.378404 0.963327 0.186263
0.388145 0.966698 0.326424
0.416066 0.969338 0.411883
0.469236 0.971751 0.518149
0.475385 0.974183 0.631719
0.479713 0.976056 0.747601
0.486876 0.977958 0.854884
0.646054 0.979449 0.957144
0.147869 -0.043226 0.042687
0.348340 -0.016244 0.143085
0.353023 -0.010045 0.241162
0.426988 -0.004945 0.373847
0.464066 -0.000593 0.481102
0.483141 0.004328 0.546059
0.491229 0.009416 0.669020
0.497184 0.014471 0.814021
0.499787 0.021241 0.938204
0.345290 0.071855 0.050225
0.352891 0.093885 0.153693
0.355897 0.099919 0.262189
0.437693 0.102708 0.384780
0.472003 0.109871 0.496766
0.501830 0.118502 0.555280
0.512767 0.131524 0.675486
0.519116 0.138269 0.818094
0.534384 0.145558 0.941823
0.350369 0.234286 0.053283
0.354685 0.239742 0.178219
0.356599 0.243590 0.296775
0.443029 0.247320 0.399433
0.511299 0.250679 0.505261
0.561301 0.253873 0.563255
0.576723 0.257567 0.677420
0.586588 0.262191 0.820128
0.638814 0.269180 0.944049
0.354460 0.351201 0.054883
0.356124 0.368279 0.179198
0.358540 0.381593 0.323012
0.444253 0.391356 0.438735
0.518667 0.393339 0.511399
0.569884 0.395554 0.568403
0.587529 0.397772 0.678904
0.591831 0.400556 0.822326
0.646590 0.405063 0.946321
0.366251 0.477725 0.056195
0.396702 0.484326 0.180040
0.404116 0.488821 0.323833
0.447637 0.494405 0.460328
0.522130 0.500024 0.515908
0.571431 0.502184 0.570069
0.591482 0.505464 0.680583
0.596686 0.509836 0.824015
0.651193 0.516071 0.948440
0.395714 0.596811 0.057845
0.448224 0.601066 0.180925
0.461437 0.605816 0.324478
0.479871 0.608084 0.461141
0.523693 0.610781 0.516994
0.575012 0.613671 0.570984
0.594178 0.616019 0.682388
0.600529 0.622940 0.825034
0.657860 0.629014 0.951112
0.450527 0.719935 0.060120
0.464209 0.724359 0.182563
0.479952 0.728702 0.325350
0.494924 0.731439 0.462282
0.527842 0.734080 0.521543
0.577746 0.737077 0.578447
0.596108 0.739164 0.692617
0.604854 0.742837 0.828111
0.684934 0.748467 0.952951
0.463116 0.844767 0.062168
0.484110 0.850242 0.184942
0.496846 0.854019 0.327809
0.505853 0.857394 0.464332
0.532225 0.859890 0.527064
0.581721 0.863175 0.626984
0.599315 0.865164 0.723058
0.607080 0.867329 0.843895
0.698332 0.871041 0.955301
0.488861 0.960898 0.066031
0.496763 0.966271 0.188080
0.507016 0.969487 0.330489
0.518456 0.971620 0.466559
0.539575 0.973794 0.533126
0.589541 0.975844 0.638470
0.606323 0.977583 0.754427
0.613817 0.979094 0.857381
0.709682 0.980903 0.959768
0.268161 -0.021596 0.044232
0.518902 -0.009066 0.144656
0.525608 -0.004053 0.249472
0.529083 -0.000129 0.375897
0.553948 0.004999 0.498784
0.594349 0.009567 0.599179
0.608522 0.015022 0.687757
0.616436 0.020032 0.819513
0.621930 0.028171 0.942229
0.511399 0.098007 0.052262
0.525171 0.104647 0.155140
0.528588 0.110617 0.265446
0.531367 0.117139 0.391831
0.558532 0.120343 0.508445
0.604364 0.128740 0.615704
0.617721 0.135639 0.695132
0.626793 0.144487 0.823683
0.635596 0.151911 0.945570
0.515179 0.238197 0.055794
0.527329 0.243928 0.178897
0.530312 0.247991 0.300892
0.533317 0.250540 0.402257
0.563842 0.253535 0.517670
0.614671 0.257272 0.625561
0.657675 0.261207 0.702643
0.682350 0.267471 0.826458
0.727964 0.274637 0.949089
0.517086 0.359940 0.058173
0.529172 0.373785 0.180340
0.531402 0.385609 0.323634
0.534721 0.393128 0.442460
0.568422 0.395343 0.536648
0.627475 0.397782 0.628525
0.686708 0.399822 0.707385
0.699880 0.402868 0.827234
0.737217 0.407553 0.950932
0.525262 0.481535 0.059960
0.533389 0.487404 0.181634
0.536177 0.491816 0.324673
0.538623 0.496624 0.462749
0.570471 0.502029 0.560788
0.633444 0.507044 0.632856
0.690946 0.513159 0.710054
0.704633 0.518270 0.829391
0.744381 0.524183 0.952712
0.540629 0.600443 0.061855
0.554355 0.604859 0.183303
0.562970 0.608343 0.325739
0.572012 0.610880 0.463493
0.593464 0.613282 0.580099
0.636537 0.614781 0.634980
0.693344 0.619076 0.713350
0.709736 0.630022 0.831423
0.749097 0.643125 0.954598
0.559872 0.723090 0.064007
0.586667 0.728181 0.185378
0.600363 0.731225 0.326973
0.611272 0.734609 0.465518
0.618008 0.737051 0.584657
0.641353 0.738794 0.641293
0.699046 0.740302 0.716047
0.715677 0.745182 0.833351
0.753167 0.752967 0.956574
0.573215 0.848437 0.066108
0.603638 0.852214 0.187379
0.612591 0.857703 0.329353
0.620525 0.859887 0.467511
0.627239 0.862689 0.587110
0.648561 0.865345 0.647505
0.702769 0.866518 0.731239
0.720562 0.868917 0.847289
0.770173 0.872141 0.957946
0.592426 0.965112 0.070859
0.615694 0.968783 0.190474
0.622653 0.971705 0.332882
0.631854 0.974013 0.470355
0.638987 0.975214 0.592144
0.654129 0.977236 0.655748
0.712246 0.979021 0.761075
0.727567 0.980270 0.863261
0.811157 0.981246 0.961070
0.420803 -0.013774 0.048095
0.649485 -0.003493 0.146019
0.676232 0.000403 0.254521
0.682070 0.004726 0.379075
0.685781 0.010288 0.503109
0.690610 0.014972 0.617183
0.715202 0.020642 0.704891
0.731627 0.027998 0.826998
0.741834 0.034826 0.945835
0.650171 0.106443 0.054797
0.677919 0.113436 0.159585
0.681856 0.119271 0.266694
0.686494 0.123422 0.393252
0.689305 0.128330 0.513340
0.695445 0.135129 0.627124
0.727880 0.141855 0.735242
0.741221 0.147223 0.834078
0.748958 0.157000 0.949805
0.653800 0.242546 0.059722
0.682356 0.247935 0.180054
0.685479 0.251775 0.302483
0.688830 0.255469 0.405023
0.691174 0.257343 0.521255
0.699652 0.261876 0.635515
0.732140 0.266392 0.743440
0.754333 0.272410 0.837123
0.779885 0.278450 0.953113
0.656441 0.363731 0.062630
0.684159 0.379287 0.181686
0.687705 0.390515 0.324866
0.689830 0.394568 0.444513
0.693295 0.397255 0.542014
0.702125 0.399623 0.646632
0.744125 0.402635 0.749697
0.770028 0.406953 0.840924
0.819855 0.411647 0.954472
0.660285 0.484732 0.065279
0.686327 0.491071 0.183549
0.689455 0.495324 0.326225
0.691245 0.499259 0.464830
0.694544 0.504608 0.563714
0.703668 0.514125 0.660907
0.753172 0.517745 0.754631
0.792846 0.522084 0.843116
0.827159 0.527723 0.956684
0.668881 0.604160 0.067189
0.690447 0.608979 0.185857
0.692812 0.612918 0.328276
0.694581 0.614434 0.466813
0.695466 0.616205 0.588389
0.705807 0.624386 0.690964
0.757714 0.630489 0.759560
0.798236 0.641766 0.845064
0.830996 0.651846 0.958006
0.688810 0.725473 0.069416
0.702387 0.731265 0.187940
0.711868 0.734683 0.330040
0.716600 0.737229 0.468525
0.721706 0.738826 0.593169
0.726233 0.740189 0.702541
0.760606 0.742194 0.762108
0.800734 0.750393 0.846265
0.835179 0.761348 0.959117
0.703753 0.852051 0.072875
0.722744 0.856948 0.190576
0.732305 0.860109 0.332387
0.739390 0.862521 0.471481
0.744164 0.865421 0.596665
0.751062 0.866885 0.709056
0.766636 0.868829 0.770052
0.822850 0.870167 0.856862
0.841931 0.876174 0.960979
0.711944 0.968124 0.079270
0.734650 0.971239 0.197627
0.740307 0.973966 0.336591
0.748663 0.975878 0.476071
0.754932 0.977773 0.600448
0.761505 0.979017 0.715417
0.780023 0.980238 0.780032
0.831389 0.981124 0.871142
0.872158 0.981981 0.962442
0.591361 -0.004646 0.052352
0.794676 0.002093 0.151066
0.817292 0.007082 0.257991
0.822802 0.010844 0.384533
0.826812 0.017239 0.507568
0.828887 0.023969 0.627993
0.834406 0.031773 0.737847
0.839175 0.038848 0.835708
0.857292 0.049802 0.948376
0.791539 0.112913 0.058133
0.817130 0.122187 0.162994
0.823316 0.124756 0.271075
0.827012 0.129850 0.398003
0.830396 0.135665 0.517579
0.833297 0.141365 0.635213
0.838141 0.148695 0.749680
0.850507 0.157700 0.853162
0.865548 0.164726 0.952943
0.796614 0.246216 0.066645
0.821992 0.250493 0.181777
0.826384 0.255477 0.306182
0.829967 0.259410 0.409493
0.833481 0.263399 0.526195
0.836309 0.266594 0.642416
0.840107 0.271817 0.753956
0.855879 0.278642 0.859082
0.870651 0.288378 0.956186
0.799131 0.367186 0.070305
0.826716 0.383660 0.184456
0.829291 0.392050 0.325832
0.833291 0.397072 0.448184
0.836268 0.399735 0.547814
0.838632 0.402794 0.650571
0.842632 0.406835 0.760015
0.860346 0.411078 0.864137
0.890370 0.415526 0.957508
0.804768 0.490131 0.076743
0.828740 0.496220 0.186548
0.832377 0.500726 0.328182
0.834811 0.507326 0.467701
0.836947 0.512671 0.570741
0.840189 0.517641 0.671389
0.845048 0.522198 0.770744
0.866094 0.527810 0.868403
0.907118 0.533417 0.959345
0.808341 0.608216 0.081599
0.831234 0.613115 0.190364
0.834393 0.617379 0.331186
0.837554 0.620201 0.469886
0.838633 0.623591 0.596530
0.840813 0.628561 0.698312
0.845662 0.638819 0.777150
0.874453 0.650058 0.871342
0.913139 0.657807 0.960244
0.815426 0.729943 0.083580
0.834873 0.734705 0.191933
0.837754 0.738183 0.333519
0.839312 0.740467 0.473817
0.840980 0.741711 0.600517
0.843146 0.743230 0.716868
0.847334 0.749682 0.798679
0.877495 0.758396 0.873630
0.915225 0.770206 0.961459
0.830190 0.853289 0.085654
0.842248 0.859948 0.195746
0.847567 0.862828 0.336457
0.850061 0.865266 0.476447
0.852037 0.867447 0.604393
0.854278 0.868825 0.729967
0.857585 0.870185 0.826698
0.914389 0.874347 0.911749
0.918362 0.880745 0.962461
0.841104 0.970754 0.092101
0.857066 0.973591 0.201205
0.862606 0.976073 0.344563
0.869133 0.977612 0.481007
0.871415 0.979432 0.609164
0.875342 0.980033 0.736944
0.881048 0.981275 0.836335
0.917472 0.981904 0.915984
0.921398 0.982353 0.963423
0.814081 0.001852 0.077115
0.926786 0.008923 0.158210
0.940364 0.015335 0.272081
0.945973 0.017898 0.392533
0.949711 0.036381 0.515736
0.952327 0.064738 0.637485
0.954896 0.081281 0.757998
0.958143 0.093069 0.861885
0.961119 0.167667 0.953624
0.900757 0.124499 0.080178
0.942512 0.128147 0.180521
0.946737 0.133023 0.281096
0.950517 0.137607 0.405631
0.953196 0.143932 0.526098
0.956613 0.150662 0.643610
0.958909 0.159244 0.763130
0.961822 0.192999 0.871195
0.964887 0.272714 0.955979
0.907834 0.251926 0.092733
0.946893 0.256697 0.184783
0.951291 0.260473 0.319772
0.953963 0.265378 0.418721
0.956945 0.269383 0.534250
0.958786 0.273587 0.652321
0.960892 0.278146 0.768583
0.963429 0.287757 0.876532
0.966164 0.392591 0.958688
0.911024 0.380156 0.111161
0.950264 0.391101 0.190755
0.953915 0.397462 0.330816
0.957099 0.400123 0.457779
0.958676 0.404832 0.563339
0.961184 0.407922 0.680457
0.963227 0.411593 0.775263
0.965397 0.415318 0.877963
0.967648 0.426494 0.959958
0.915433 0.495178 0.148080
0.953028 0.502125 0.237502
0.955614 0.508930 0.376829
0.958596 0.513531 0.475720
0.960695 0.518351 0.603233
0.963044 0.523816 0.699227
0.964789 0.527628 0.791027
0.966550 0.534904 0.880815
0.968423 0.542240 0.961303
0.917244 0.612130 0.177101
0.955296 0.619732 0.277670
0.958294 0.622591 0.428906
0.960254 0.626068 0.491845
0.962665 0.635062 0.624261
0.964417 0.643787 0.705274
0.966174 0.651618 0.800470
0.967595 0.658718 0.884483
0.969274 0.670020 0.962592
0.918934 0.734882 0.197080
0.957433 0.739889 0.303251
0.959755 0.743030 0.462504
0.961889 0.745394 0.507660
0.963772 0.749691 0.630416
0.965796 0.757454 0.745453
0.967333 0.762023 0.808521
0.968599 0.771320 0.890445
0.970116 0.781704 0.963511
0.928460 0.859025 0.203947
0.960119 0.863829 0.315221
0.962276 0.865961 0.497498
0.964137 0.868021 0.598110
0.965775 0.870523 0.656191
0.967325 0.871375 0.768707
0.968405 0.873856 0.836102
0.969512 0.881209 0.914704
0.970352 0.891825 0.963991
0.945069 0.973613 0.391689
0.963532 0.975918 0.455006
0.965562 0.977749 0.548822
0.967490 0.979677 0.629275
0.968169 0.980811 0.688905
0.968955 0.981550 0.788916
0.970002 0.982058 0.873226
0.970273 0.982255 0.926326
0.970705 0.982467 0.964247
