AI/models/basis_lut_0.cube
TITLE "Basis LUT 0 (identity)"
LUT_3D_SIZE 5
-0.234557 -0.161611 -0.233863
0.016562 -0.106111 -0.108239
0.022013 -0.029624 0.302163
0.028252 -0.012506 0.650336
0.045907 0.003550 0.912198
-0.056405 0.196734 -0.047522
0.048957 0.210489 -0.035573
0.059306 0.235019 0.307341
0.063433 0.243474 0.658798
0.072027 0.251475 0.920700
-0.001717 0.449897 -0.005400
0.051497 0.464647 0.196524
0.065986 0.472768 0.330074
0.090942 0.481789 0.661558
0.164629 0.493226 0.924409
0.003941 0.697560 0.004532
0.054734 0.710306 0.243619
0.069923 0.719385 0.435106
0.094841 0.726624 0.673096
0.263282 0.736390 0.925746
0.018245 0.939887 0.019852
0.063489 0.954301 0.251383
0.079892 0.961923 0.495404
0.102797 0.967360 0.715921
0.407278 0.973712 0.928479
-0.064147 -0.105071 0.037959
0.208486 -0.026120 0.189908
0.241925 -0.009569 0.337117
0.255353 0.000764 0.660262
0.280421 0.011864 0.929250
-0.019840 0.218846 0.047242
0.222374 0.234608 0.217459
0.334689 0.242476 0.343828
0.336888 0.251530 0.665353
0.394332 0.260845 0.937010
0.150353 0.466681 0.049529
0.242133 0.477467 0.226426
0.336637 0.487224 0.344632
0.339391 0.493582 0.670135
0.423116 0.505091 0.942713
0.236049 0.710016 0.052723
0.264580 0.721889 0.262846
0.338307 0.728174 0.483360
0.342677 0.734710 0.687681
0.468488 0.743041 0.947488
0.255656 0.953005 0.057761
0.289535 0.963087 0.286566
0.342244 0.969048 0.507670
0.349282 0.974096 0.745329
0.622830 0.978345 0.955713
0.147869 -0.043226 0.042687
0.353023 -0.010045 0.241162
0.464066 -0.000593 0.481102
0.491229 0.009416 0.669020
0.499787 0.021241 0.938204
0.350369 0.234286 0.053283
0.356599 0.243590 0.296775
0.511299 0.250679 0.505261
0.576723 0.257567 0.677420
0.638814 0.269180 0.944049
0.366251 0.477725 0.056195
0.404116 0.488821 0.323833
0.522130 0.500024 0.515908
0.591482 0.505464 0.680583
0.651193 0.516071 0.948440
0.450527 0.719935 0.060120
0.479952 0.728702 0.325350
0.527842 0.734080 0.521543
0.596108 0.739164 0.692617
0.684934 0.748467 0.952951
0.488861 0.960898 0.066031
0.507016 0.969487 0.330489
0.539575 0.973794 0.533126
0.606323 0.977583 0.754427
0.709682 0.980903 0.959768
0.420803 -0.013774 0.048095
0.676232 0.000403 0.254521
0.685781 0.010288 0.503109
0.715202 0.020642 0.704891
0.741834 0.034826 0.945835
0.653800 0.242546 0.059722
0.685479 0.251775 0.302483
0.691174 0.257343 0.521255
0.732140 0.266392 0.743440
0.779885 0.278450 0.953113
0.660285 0.484732 0.065279
0.689455 0.495324 0.326225
0.694544 0.504608 0.563714
0.753172 0.517745 0.754631
0.827159 0.527723 0.956684
0.688810 0.725473 0.069416
0.711868 0.734683 0.330040
0.721706 0.738826 0.593169
0.760606 0.742194 0.762108
0.835179 0.761348 0.959117
0.711944 0.968124 0.079270
0.740307 0.973966 0.336591
0.754932 0.977773 0.600448
0.780023 0.980238 0.780032
0.872158 0.981981 0.962442
0.814081 0.001852 0.077115
0.940364 0.015335 0.272081
0.949711 0.036381 0.515736
0.954896 0.081281 0.757998
0.961119 0.167667 0.953624
0.907834 0.251926 0.092733
0.951291 0.260473 0.319772
0.956945 0.269383 0.534250
0.960892 0.278146 0.768583
0.966164 0.392591 0.958688
0.915433 0.495178 0.148080
0.955614 0.508930 0.376829
0.960695 0.518351 0.603233
0.964789 0.527628 0.791027
0.968423 0.542240 0.961303
0.918934 0.734882 0.197080
0.959755 0.743030 0.462504
0.963772 0.749691 0.630416
0.967333 0.762023 0.808521
0.970116 0.781704 0.963511
0.945069 0.973613 0.391689
0.965562 0.977749 0.548822
0.968169 0.980811 0.688905
0.970002 0.982058 0.873226
0.970705 0.982467 0.964247
